; generated by PrusaSlicer 2.7.3+linux-x64-GTK3 on 2025-02-19 at 10:43:58 UTC


;
;
; 

; external perimeters extrusion width = 0.42mm
; perimeters extrusion width = 0.45mm
; infill extrusion width = 0.45mm
; solid infill extrusion width = 0.45mm
; top infill extrusion width = 0.42mm
; first layer extrusion width = 0.50mm

;TYPE:Custom
G90 ; use absolute coordinates
M83 ; extruder relative mode
M140 S60 ; set bed temp
M190 S60 ; wait for bed temp
M104 S210 ; set extruder temp
M109 S210 ; wait for extruder temp
G28                                        ; move X/Y/Z to min endstops
G1 Z0.28                                   ; lift nozzle a bit 
G92 E0 
G1 Y3 F2400                                    ; zero the extruded length 
G1 X180  E40 F500                       ; Extrude 25mm of filament in a 5cm line. 
G92 E0                                     ; zero the extruded length again 
G1 E-0.2 F3000                                ; Retract a little 
G1 X181 F4000                              ; Quickly wipe away from the filament line
M117
G21 ; set units to millimeters
G90 ; use absolute coordinates
M82 ; use absolute distances for extrusion
G92 E0
M107
;LAYER_CHANGE
;Z:0.25
;HEIGHT:0.25
G1 E-5 F4800
G1 Z.25 F18000
G92 E0
G1 X128.675 Y101.325
G1 E5 F4800
G92 E0
M204 S5000
;TYPE:External perimeter
;WIDTH:0.499999
G1 X128.675 Y106.788 E.2357
G1 X128.675 Y118.675 E.74857
G1 X91.325 Y118.675 E2.36004
G1 X91.325 Y101.325 E3.10861
G1 X128.615 Y101.325 E4.71749
M204 S20000
G1 X128.229 Y101.771 F18000
M204 S5000
;TYPE:Perimeter
G1 F4800
G1 X128.229 Y106.788 E4.93395
G1 X128.229 Y118.229 E5.42757
G1 X91.771 Y118.229 E7.00055
G1 X91.771 Y101.771 E7.71063
G1 X128.169 Y101.771 E9.28103
M204 S20000
G1 X128.169 Y101.771 F18000
G1 X127.782 Y102.218
M204 S5000
G1 F4800
G1 X127.782 Y106.788 E9.4782
G1 X127.782 Y117.782 E9.95254
G1 X92.218 Y117.782 E11.48695
G1 X92.218 Y102.218 E12.15846
G1 X127.722 Y102.218 E13.69028
M204 S20000
;WIPE_START
G1 F14400
G1 X127.782 Y102.218 E13.67128
G1 X127.782 Y106.788 E12.22411
G1 X127.782 Y117.782 E8.74268
G1 X127.617 Y117.782 E8.69028
;WIPE_END
G92 E0
G1 X117.75 Y115.027 F18000
G1 E5 F4800
M204 S5000
;TYPE:External perimeter
G1 X117.681 Y115.188 E5.00756
G1 X117.527 Y115.25 E5.01472
G1 X102.473 Y115.25 E5.66423
G1 X102.319 Y115.188 E5.67139
G1 X102.25 Y115.027 E5.67895
G1 X102.25 Y104.973 E6.11273
G1 X102.319 Y104.812 E6.12029
G1 X102.473 Y104.75 E6.12745
G1 X117.527 Y104.75 E6.77696
G1 X117.681 Y104.812 E6.78412
G1 X117.75 Y104.973 E6.79168
G1 X117.75 Y114.967 E7.22287
M204 S20000
G1 X117.75 Y114.967 F18000
G1 X118.172 Y115.125
M204 S5000
;TYPE:Perimeter
G1 F4800
G1 X118.118 Y115.342 E7.23252
G1 X117.989 Y115.512 E7.24173
G1 X117.784 Y115.645 E7.25227
G1 X117.527 Y115.696 E7.26357
G1 X102.473 Y115.696 E7.91308
G1 X102.216 Y115.645 E7.92438
G1 X102.011 Y115.512 E7.93492
G1 X101.882 Y115.342 E7.94413
G1 X101.804 Y115.027 E7.95813
G1 X101.804 Y104.973 E8.39191
G1 X101.882 Y104.658 E8.40591
G1 X102.011 Y104.488 E8.41512
G1 X102.216 Y104.355 E8.42566
G1 X102.473 Y104.304 E8.43696
G1 X117.527 Y104.304 E9.08647
G1 X117.784 Y104.355 E9.09777
G1 X117.989 Y104.488 E9.10831
G1 X118.118 Y104.658 E9.11752
G1 X118.196 Y104.973 E9.13152
G1 X118.196 Y115.027 E9.5653
G1 X118.186 Y115.067 E9.56708
M204 S20000
G1 X118.186 Y115.067 F18000
G1 X118.628 Y115.157
M204 S5000
G1 F4800
G1 X118.615 Y115.272 E9.57207
G1 X118.511 Y115.552 E9.58496
G1 X118.296 Y115.835 E9.60029
G1 X117.956 Y116.057 E9.61781
G1 X117.527 Y116.143 E9.63669
G1 X102.473 Y116.143 E10.2862
G1 X102.044 Y116.057 E10.30508
G1 X101.704 Y115.835 E10.3226
G1 X101.489 Y115.552 E10.33793
G1 X101.385 Y115.272 E10.35082
G1 X101.357 Y115.027 E10.36146
G1 X101.357 Y104.973 E10.79524
G1 X101.385 Y104.728 E10.80588
G1 X101.489 Y104.448 E10.81877
G1 X101.704 Y104.165 E10.8341
G1 X102.044 Y103.943 E10.85162
G1 X102.473 Y103.857 E10.8705
G1 X117.527 Y103.857 E11.52001
G1 X117.956 Y103.943 E11.53889
G1 X118.296 Y104.165 E11.55641
G1 X118.511 Y104.448 E11.57174
G1 X118.615 Y104.728 E11.58463
G1 X118.643 Y104.973 E11.59527
G1 X118.643 Y115.027 E12.02905
G1 X118.635 Y115.097 E12.03209
M204 S20000
;WIPE_START
G1 F14400
G1 X118.628 Y115.157 E12.01296
G1 X118.615 Y115.272 E11.97631
G1 X118.511 Y115.552 E11.88172
G1 X118.296 Y115.835 E11.76917
G1 X117.956 Y116.057 E11.64058
G1 X117.527 Y116.143 E11.50203
G1 X103.412 Y116.143 E7.03209
;WIPE_END
G92 E0
G1 X126.701 Y102.396 F18000
G1 E5 F4800
M204 S5000
;TYPE:Solid infill
;WIDTH:0.500049
G1 X127.403 Y103.098 E5.04284
G1 X127.403 Y103.729 E5.07007
G1 X126.271 Y102.597 E5.13915
G1 X125.64 Y102.597 E5.16638
G1 X127.403 Y104.36 E5.27396
G1 X127.403 Y104.992 E5.30123
G1 X125.008 Y102.597 E5.44738
G1 X124.377 Y102.597 E5.47461
G1 X127.403 Y105.623 E5.65927
G1 X127.403 Y106.254 E5.6865
G1 X123.746 Y102.597 E5.90966
G1 X123.114 Y102.597 E5.93693
G1 X127.403 Y106.886 E6.19866
G1 X127.403 Y107.517 E6.22589
G1 X122.483 Y102.597 E6.52612
G1 X121.852 Y102.597 E6.55335
G1 X127.403 Y108.148 E6.89209
G1 X127.403 Y108.78 E6.91936
G1 X121.221 Y102.597 E7.29664
G1 X120.589 Y102.597 E7.32391
G1 X127.403 Y109.411 E7.73972
G1 X127.403 Y110.042 E7.76695
G1 X119.958 Y102.597 E8.22127
G1 X119.327 Y102.597 E8.2485
G1 X127.403 Y110.673 E8.74132
G1 X127.403 Y111.305 E8.76859
G1 X118.695 Y102.597 E9.29998
G1 X118.064 Y102.597 E9.32721
G1 X127.403 Y111.936 E9.89711
G1 X127.403 Y112.567 E9.92434
G1 X117.433 Y102.597 E10.53274
G1 X116.801 Y102.597 E10.56001
G1 X117.717 Y103.513 E10.61591
G1 X118.102 Y103.59 E10.63285
G1 X118.558 Y103.887 E10.65633
G1 X118.847 Y104.267 E10.67693
G1 X118.986 Y104.643 E10.69423
G1 X119.004 Y104.799 E10.70101
G1 X127.403 Y113.199 E11.21357
G1 X127.403 Y113.83 E11.2408
G1 X119.022 Y105.449 E11.75224
G1 X119.022 Y106.08 E11.77947
G1 X127.403 Y114.461 E12.29091
G1 X127.403 Y115.093 E12.31818
G1 X119.022 Y106.712 E12.82962
G1 X119.022 Y107.343 E12.85685
G1 X127.403 Y115.724 E13.36829
G1 X127.403 Y116.355 E13.39552
G1 X119.022 Y107.974 E13.90696
G1 X119.022 Y108.606 E13.93423
G1 X127.403 Y116.986 E14.44564
G1 X127.403 Y117.403 E14.46363
G1 X127.188 Y117.403 E14.47291
G1 X119.022 Y109.237 E14.97123
G1 X119.022 Y109.868 E14.99846
G1 X126.557 Y117.403 E15.45827
G1 X125.925 Y117.403 E15.48554
G1 X119.022 Y110.5 E15.90678
G1 X119.022 Y111.131 E15.93401
G1 X125.294 Y117.403 E16.31675
G1 X124.663 Y117.403 E16.34398
G1 X119.022 Y111.762 E16.68821
G1 X119.022 Y112.393 E16.71544
G1 X124.032 Y117.403 E17.02117
G1 X123.4 Y117.403 E17.04844
G1 X119.022 Y113.025 E17.3156
G1 X119.022 Y113.656 E17.34283
G1 X122.769 Y117.403 E17.57148
G1 X122.138 Y117.403 E17.59871
G1 X119.022 Y114.287 E17.78886
G1 X119.022 Y114.919 E17.81613
G1 X121.506 Y117.403 E17.96771
G1 X120.875 Y117.403 E17.99494
G1 X118.944 Y115.472 E18.11278
G1 X118.847 Y115.733 E18.12479
G1 X118.729 Y115.888 E18.1332
G1 X120.244 Y117.403 E18.22565
G1 X119.612 Y117.403 E18.25292
G1 X118.415 Y116.206 E18.32596
G1 X118.108 Y116.406 E18.34177
G1 X118.012 Y116.434 E18.34608
G1 X118.981 Y117.403 E18.40521
G1 X118.35 Y117.403 E18.43244
G1 X117.469 Y116.522 E18.4862
G1 X116.838 Y116.522 E18.51343
G1 X117.719 Y117.403 E18.56719
G1 X117.087 Y117.403 E18.59446
G1 X116.206 Y116.522 E18.64822
G1 X115.575 Y116.522 E18.67545
G1 X116.456 Y117.403 E18.72921
G1 X115.825 Y117.403 E18.75644
G1 X114.944 Y116.522 E18.8102
G1 X114.312 Y116.522 E18.83747
G1 X115.193 Y117.403 E18.89123
G1 X114.562 Y117.403 E18.91846
G1 X113.681 Y116.522 E18.97222
G1 X113.05 Y116.522 E18.99945
G1 X113.931 Y117.403 E19.05321
G1 X113.299 Y117.403 E19.08048
G1 X112.419 Y116.522 E19.13421
G1 X111.787 Y116.522 E19.16148
G1 X112.668 Y117.403 E19.21524
G1 X112.037 Y117.403 E19.24247
G1 X111.156 Y116.522 E19.29623
G1 X110.525 Y116.522 E19.32346
G1 X111.405 Y117.403 E19.37719
G1 X110.774 Y117.403 E19.40442
G1 X109.893 Y116.522 E19.45818
G1 X109.262 Y116.522 E19.48541
G1 X110.143 Y117.403 E19.53917
G1 X109.512 Y117.403 E19.5664
G1 X108.631 Y116.522 E19.62016
G1 X107.999 Y116.522 E19.64743
G1 X108.88 Y117.403 E19.70119
G1 X108.249 Y117.403 E19.72842
G1 X107.368 Y116.522 E19.78218
G1 X106.737 Y116.522 E19.80941
G1 X107.618 Y117.403 E19.86317
G1 X106.986 Y117.403 E19.89044
G1 X106.106 Y116.522 E19.94417
G1 X105.474 Y116.522 E19.97144
G1 X106.355 Y117.403 E20.0252
G1 X105.724 Y117.403 E20.05243
G1 X104.843 Y116.522 E20.10619
G1 X104.212 Y116.522 E20.13342
G1 X105.092 Y117.403 E20.18715
G1 X104.461 Y117.403 E20.21438
G1 X103.58 Y116.522 E20.26814
G1 X102.949 Y116.522 E20.29537
G1 X104.031 Y117.604 E20.3614
M204 S20000
;WIPE_START
G1 F14400
G1 X102.949 Y116.522 E19.87684
G1 X103.58 Y116.522 E19.67702
G1 X104.461 Y117.403 E19.28248
G1 X105.092 Y117.403 E19.08266
G1 X104.212 Y116.522 E18.68834
G1 X104.843 Y116.522 E18.48852
G1 X105.724 Y117.403 E18.09398
G1 X106.355 Y117.403 E17.89416
G1 X105.474 Y116.522 E17.49962
G1 X106.106 Y116.522 E17.29949
G1 X106.986 Y117.403 E16.90517
G1 X107.618 Y117.403 E16.70504
G1 X106.737 Y116.522 E16.3105
G1 X107.368 Y116.522 E16.11068
G1 X108.249 Y117.403 E15.71614
G1 X108.88 Y117.403 E15.51632
G1 X108.534 Y117.057 E15.3614
;WIPE_END
G92 E0
G1 X115.969 Y102.396 F18000
G1 E5 F4800
M204 S5000
G1 X117.051 Y103.478 E5.06603
G1 X116.42 Y103.478 E5.09326
G1 X115.539 Y102.597 E5.14702
G1 X114.907 Y102.597 E5.17429
G1 X115.788 Y103.478 E5.22805
G1 X115.157 Y103.478 E5.25528
G1 X114.276 Y102.597 E5.30904
G1 X113.645 Y102.597 E5.33627
G1 X114.526 Y103.478 E5.39003
G1 X113.894 Y103.478 E5.4173
G1 X113.014 Y102.597 E5.47103
G1 X112.382 Y102.597 E5.4983
G1 X113.263 Y103.478 E5.55206
G1 X112.632 Y103.478 E5.57929
G1 X111.751 Y102.597 E5.63305
G1 X111.12 Y102.597 E5.66028
G1 X112 Y103.478 E5.71401
G1 X111.369 Y103.478 E5.74124
G1 X110.488 Y102.597 E5.795
G1 X109.857 Y102.597 E5.82223
G1 X110.738 Y103.478 E5.87599
G1 X110.107 Y103.478 E5.90322
G1 X109.226 Y102.597 E5.95698
G1 X108.594 Y102.597 E5.98425
G1 X109.475 Y103.478 E6.03801
G1 X108.844 Y103.478 E6.06524
G1 X107.963 Y102.597 E6.119
G1 X107.332 Y102.597 E6.14623
G1 X108.213 Y103.478 E6.19999
G1 X107.581 Y103.478 E6.22726
G1 X106.701 Y102.597 E6.28099
G1 X106.069 Y102.597 E6.30826
G1 X106.95 Y103.478 E6.36202
G1 X106.319 Y103.478 E6.38925
G1 X105.438 Y102.597 E6.44301
G1 X104.807 Y102.597 E6.47024
G1 X105.687 Y103.478 E6.52397
G1 X105.056 Y103.478 E6.5512
G1 X104.175 Y102.597 E6.60496
G1 X103.544 Y102.597 E6.63219
G1 X104.425 Y103.478 E6.68595
G1 X103.794 Y103.478 E6.71318
G1 X102.913 Y102.597 E6.76694
G1 X102.281 Y102.597 E6.79421
G1 X103.162 Y103.478 E6.84797
G1 X102.531 Y103.478 E6.8752
G1 X101.65 Y102.597 E6.92896
G1 X101.019 Y102.597 E6.95619
G1 X101.987 Y103.566 E7.01529
G1 X101.892 Y103.594 E7.01956
G1 X101.585 Y103.794 E7.03537
G1 X100.387 Y102.597 E7.10845
G1 X99.756 Y102.597 E7.13568
G1 X101.271 Y104.112 E7.22813
G1 X101.153 Y104.267 E7.23654
G1 X101.056 Y104.528 E7.24855
G1 X99.125 Y102.597 E7.36639
G1 X98.494 Y102.597 E7.39362
G1 X100.978 Y105.081 E7.5452
G1 X100.978 Y105.713 E7.57247
G1 X97.862 Y102.597 E7.76262
G1 X97.231 Y102.597 E7.78985
G1 X100.978 Y106.344 E8.0185
G1 X100.978 Y106.975 E8.04573
G1 X96.6 Y102.597 E8.31289
G1 X95.968 Y102.597 E8.34016
G1 X100.978 Y107.607 E8.64589
G1 X100.978 Y108.238 E8.67312
G1 X95.337 Y102.597 E9.01735
G1 X94.706 Y102.597 E9.04458
G1 X100.978 Y108.869 E9.42732
G1 X100.978 Y109.501 E9.45459
G1 X94.074 Y102.597 E9.87589
G1 X93.443 Y102.597 E9.90312
G1 X100.978 Y110.132 E10.36293
G1 X100.978 Y110.763 E10.39016
G1 X92.812 Y102.597 E10.88848
G1 X92.597 Y102.597 E10.89776
G1 X92.597 Y103.014 E10.91575
G1 X100.978 Y111.394 E11.42716
G1 X100.978 Y112.026 E11.45443
G1 X92.597 Y103.645 E11.96587
G1 X92.597 Y104.276 E11.9931
G1 X100.978 Y112.657 E12.50454
G1 X100.978 Y113.288 E12.53177
G1 X92.597 Y104.908 E13.04318
G1 X92.597 Y105.539 E13.07041
G1 X100.978 Y113.92 E13.58185
G1 X100.978 Y114.551 E13.60908
G1 X92.597 Y106.17 E14.12052
G1 X92.597 Y106.801 E14.14775
G1 X100.996 Y115.201 E14.66031
G1 X101.014 Y115.357 E14.66709
G1 X101.153 Y115.733 E14.68439
G1 X101.442 Y116.113 E14.70499
G1 X101.898 Y116.41 E14.72847
G1 X102.283 Y116.487 E14.74541
G1 X103.199 Y117.403 E14.80131
G1 X102.567 Y117.403 E14.82858
G1 X92.597 Y107.433 E15.43698
G1 X92.597 Y108.064 E15.46421
G1 X101.936 Y117.403 E16.03411
G1 X101.305 Y117.403 E16.06134
G1 X92.597 Y108.695 E16.59273
G1 X92.597 Y109.327 E16.62
G1 X100.673 Y117.403 E17.11282
G1 X100.042 Y117.403 E17.14005
G1 X92.597 Y109.958 E17.59437
G1 X92.597 Y110.589 E17.6216
G1 X99.411 Y117.403 E18.03741
G1 X98.779 Y117.403 E18.06468
G1 X92.597 Y111.221 E18.44193
G1 X92.597 Y111.852 E18.46916
G1 X98.148 Y117.403 E18.8079
G1 X97.517 Y117.403 E18.83513
G1 X92.597 Y112.483 E19.13536
G1 X92.597 Y113.115 E19.16263
G1 X96.885 Y117.403 E19.4243
G1 X96.254 Y117.403 E19.45153
G1 X92.597 Y113.746 E19.67469
G1 X92.597 Y114.377 E19.70192
G1 X95.623 Y117.403 E19.88658
G1 X94.992 Y117.403 E19.91381
G1 X92.597 Y115.008 E20.05996
G1 X92.597 Y115.64 E20.08723
G1 X94.36 Y117.403 E20.19481
G1 X93.729 Y117.403 E20.22204
G1 X92.597 Y116.271 E20.29112
G1 X92.597 Y116.902 E20.31835
G1 X93.299 Y117.604 E20.36119
M204 S20000
;LAYER_CHANGE
;Z:0.45
;HEIGHT:0.2
; BEFORE_LAYER_CHANGE 1 @ 0.45mm
G1 Z.45 F18000
; AFTER_LAYER_CHANGE 1 @ 0.45mm
M104 S200 ; set temperature
G1 E15.36119 F4800
G92 E0
G1 X93.299 Y117.604 Z.45 F18000
G1 X128.715 Y101.285
G1 E5 F4800
G92 E0
M204 S5000
;TYPE:External perimeter
;WIDTH:0.419999
G1 F7200
G1 X128.715 Y106.788 E.16046
G1 X128.715 Y118.715 E.50824
G1 X91.285 Y118.715 E1.59968
G1 X91.285 Y101.285 E2.10793
G1 X128.655 Y101.285 E3.19762
M204 S20000
G1 X128.323 Y101.677 F18000
M204 S10000
;TYPE:Perimeter
;WIDTH:0.449999
G1 X128.323 Y106.788 E3.35851
G1 X128.323 Y118.323 E3.72162
G1 X91.677 Y118.323 E4.87521
G1 X91.677 Y101.677 E5.39922
G1 X128.263 Y101.677 E6.55092
M204 S20000
G1 X127.916 Y102.084
M204 S10000
G1 X127.916 Y106.788 E6.699
G1 X127.916 Y117.916 E7.0493
G1 X92.084 Y117.916 E8.17727
G1 X92.084 Y102.084 E8.67565
G1 X127.856 Y102.084 E9.80173
M204 S20000
;WIPE_START
G1 F14400
G1 X127.916 Y102.084 E9.78273
G1 X127.916 Y106.788 E8.29313
G1 X127.916 Y117.813 E4.80173
;WIPE_END
G92 E0
G1 X117.71 Y115.021 F18000
G1 E5 F4800
M204 S5000
;TYPE:External perimeter
;WIDTH:0.419999
G1 F7200
G1 X117.651 Y115.158 E5.00435
G1 X117.521 Y115.21 E5.00843
G1 X102.479 Y115.21 E5.44705
G1 X102.349 Y115.158 E5.45113
G1 X102.29 Y115.021 E5.45548
G1 X102.29 Y104.979 E5.7483
G1 X102.349 Y104.842 E5.75265
G1 X102.479 Y104.79 E5.75673
G1 X117.521 Y104.79 E6.19535
G1 X117.651 Y104.842 E6.19943
G1 X117.71 Y104.979 E6.20378
G1 X117.71 Y114.961 E6.49485
M204 S20000
G1 X117.71 Y114.961 F18000
G1 X118.081 Y115.107
M204 S10000
;TYPE:Perimeter
;WIDTH:0.449999
G1 X118.034 Y115.295 E6.50095
G1 X117.922 Y115.442 E6.50677
G1 X117.622 Y115.593 E6.51734
G1 X117.521 Y115.602 E6.52053
G1 X102.479 Y115.602 E6.99404
G1 X102.255 Y115.557 E7.00123
G1 X102.078 Y115.442 E7.00787
G1 X101.912 Y115.149 E7.01847
G1 X101.898 Y115.021 E7.02252
G1 X101.898 Y104.979 E7.33864
G1 X101.966 Y104.705 E7.34753
G1 X102.078 Y104.558 E7.35335
G1 X102.378 Y104.407 E7.36392
G1 X102.479 Y104.398 E7.36711
G1 X117.521 Y104.398 E7.84062
G1 X117.745 Y104.443 E7.84781
G1 X117.922 Y104.558 E7.85445
G1 X118.088 Y104.851 E7.86505
G1 X118.102 Y104.979 E7.8691
G1 X118.102 Y115.021 E8.18522
G1 X118.095 Y115.049 E8.18613
M204 S20000
G1 X118.496 Y115.138
M204 S10000
G1 X118.485 Y115.238 E8.1893
G1 X118.393 Y115.486 E8.19763
G1 X118.203 Y115.737 E8.20754
G1 X117.901 Y115.933 E8.21887
G1 X117.521 Y116.009 E8.23107
G1 X102.479 Y116.009 E8.70458
G1 X102.099 Y115.933 E8.71678
G1 X101.797 Y115.737 E8.72811
G1 X101.607 Y115.486 E8.73802
G1 X101.515 Y115.238 E8.74635
G1 X101.491 Y115.021 E8.75322
G1 X101.491 Y104.979 E9.06934
G1 X101.515 Y104.762 E9.07621
G1 X101.607 Y104.514 E9.08454
G1 X101.797 Y104.263 E9.09445
G1 X102.099 Y104.067 E9.10578
G1 X102.479 Y103.991 E9.11798
G1 X117.521 Y103.991 E9.59149
G1 X117.901 Y104.067 E9.60369
G1 X118.203 Y104.263 E9.61502
G1 X118.393 Y104.514 E9.62493
G1 X118.485 Y104.762 E9.63326
G1 X118.509 Y104.979 E9.64013
G1 X118.509 Y115.021 E9.95625
G1 X118.503 Y115.078 E9.95805
M204 S20000
;WIPE_START
G1 F14400
G1 X118.496 Y115.138 E9.93892
