; generated by PrusaSlicer 2.7.3+linux-x64-GTK3 on 2025-02-19 at 10:42:43 UTC


;
;
; 

; external perimeters extrusion width = 0.42mm
; perimeters extrusion width = 0.45mm
; infill extrusion width = 0.45mm
; solid infill extrusion width = 0.45mm
; top infill extrusion width = 0.42mm
; support material extrusion width = 0.42mm
; first layer extrusion width = 0.50mm

;TYPE:Custom
G90 ; use absolute coordinates
M83 ; extruder relative mode
M140 S60 ; set bed temp
M190 S60 ; wait for bed temp
M104 S210 ; set extruder temp
M109 S210 ; wait for extruder temp
G28                                        ; move X/Y/Z to min endstops
G1 Z0.28                                   ; lift nozzle a bit 
G92 E0 
G1 Y3 F2400                                    ; zero the extruded length 
G1 X180  E40 F500                       ; Extrude 25mm of filament in a 5cm line. 
G92 E0                                     ; zero the extruded length again 
G1 E-0.2 F3000                                ; Retract a little 
G1 X181 F4000                              ; Quickly wipe away from the filament line
M117
G21 ; set units to millimeters
G90 ; use absolute coordinates
M82 ; use absolute distances for extrusion
G92 E0
M107
;LAYER_CHANGE
;Z:0.25
;HEIGHT:0.25
G1 E-5 F4800
G1 Z.25 F18000
G92 E0
G1 X102.339 Y104.795
G1 E5 F4800
G92 E0
M204 S5000
;TYPE:External perimeter
;WIDTH:0.499999
G1 X102.25 Y104.973 E.00859
G1 X102.25 Y115.027 E.44237
G1 X102.339 Y115.205 E.45096
G1 X102.473 Y115.25 E.45706
G1 X117.527 Y115.25 E1.10657
G1 X117.661 Y115.205 E1.11267
G1 X117.75 Y115.027 E1.12126
G1 X117.75 Y112.25 E1.24107
G1 X127.6 Y112.25 E1.66605
G1 X127.6 Y114.925 E1.78146
G1 X127.6 Y117.6 E1.89687
G1 X92.4 Y117.6 E3.41558
G1 X92.4 Y102.4 E4.07139
G1 X127.6 Y102.4 E5.5901
G1 X127.6 Y107.75 E5.82093
G1 X117.75 Y107.75 E6.24591
G1 X117.75 Y104.973 E6.36572
G1 X117.661 Y104.795 E6.37431
G1 X117.527 Y104.75 E6.38041
G1 X102.473 Y104.75 E7.02992
G1 X102.396 Y104.776 E7.03343
M204 S20000
G1 X102.396 Y104.776 F18000
G1 X102.038 Y104.48
M204 S5000
;TYPE:Perimeter
G1 F4800
G1 X101.855 Y104.716 E7.04631
G1 X101.804 Y104.973 E7.05761
G1 X101.804 Y115.027 E7.49139
G1 X101.855 Y115.284 E7.50269
G1 X102.071 Y115.562 E7.51788
G1 X102.473 Y115.696 E7.53616
G1 X117.643 Y115.686 E8.19067
G1 X117.929 Y115.562 E8.20412
G1 X118.145 Y115.284 E8.21931
G1 X118.196 Y115.027 E8.23061
G1 X118.196 Y112.696 E8.33118
G1 X127.154 Y112.696 E8.71767
G1 X127.154 Y114.925 E8.81384
G1 X127.154 Y117.154 E8.91001
G1 X92.846 Y117.154 E10.39023
G1 X92.846 Y102.846 E11.00755
G1 X127.154 Y102.846 E12.48777
G1 X127.154 Y107.304 E12.68011
G1 X118.196 Y107.304 E13.0666
G1 X118.196 Y105.075 E13.16277
G1 X118.145 Y104.716 E13.17841
G1 X117.929 Y104.438 E13.1936
G1 X117.527 Y104.304 E13.21188
G1 X102.473 Y104.304 E13.86139
G1 X102.357 Y104.314 E13.86641
G1 X102.077 Y104.435 E13.87957
M204 S20000
G1 X102.077 Y104.435 F18000
G1 X101.738 Y104.165
M204 S5000
G1 F4800
G1 X101.443 Y104.544 E13.90029
G1 X101.357 Y104.973 E13.91917
G1 X101.357 Y115.027 E14.35295
G1 X101.443 Y115.456 E14.37183
G1 X101.804 Y115.92 E14.39719
;WIDTH:0.529563
G1 X102.138 Y116.046 E14.41361
;WIDTH:0.559127
G1 X102.473 Y116.172 E14.4311
G1 X117.527 Y116.172 E15.16665
;WIDTH:0.569721
G1 X117.726 Y116.16 E15.1766
G1 X117.961 Y116.04 E15.18976
;WIDTH:0.53486
G1 X118.196 Y115.92 E15.20203
;WIDTH:0.499999
G1 X118.557 Y115.456 E15.22739
G1 X118.643 Y115.027 E15.24627
G1 X118.643 Y113.143 E15.32756
G1 X126.707 Y113.143 E15.67548
G1 X126.707 Y114.925 E15.75236
G1 X126.707 Y116.707 E15.82924
G1 X118.459 Y116.707 E16.1851
;WIDTH:0.529563
G1 X117.993 Y116.693 E16.20655
;WIDTH:0.559127
G1 X117.527 Y116.678 E16.22933
G1 X102.473 Y116.678 E16.96488
G1 X102.007 Y116.693 E16.98766
;WIDTH:0.529563
G1 X101.541 Y116.707 E17.00911
;WIDTH:0.499999
G1 X93.293 Y116.707 E17.36497
G1 X93.293 Y103.293 E17.94372
G1 X101.541 Y103.293 E18.29958
;WIDTH:0.529563
G1 X102.007 Y103.307 E18.32103
;WIDTH:0.559127
G1 X102.473 Y103.322 E18.34381
G1 X117.527 Y103.322 E19.07936
G1 X117.993 Y103.307 E19.10214
;WIDTH:0.529563
G1 X118.459 Y103.293 E19.12359
;WIDTH:0.499999
G1 X126.707 Y103.293 E19.47945
G1 X126.707 Y106.857 E19.63322
G1 X118.643 Y106.857 E19.98114
G1 X118.643 Y105.075 E20.05802
G1 X118.557 Y104.544 E20.08123
G1 X118.196 Y104.08 E20.10659
;WIDTH:0.529563
G1 X117.862 Y103.954 E20.12301
;WIDTH:0.559127
G1 X117.527 Y103.828 E20.1405
G1 X102.473 Y103.828 E20.87605
;WIDTH:0.569721
G1 X102.274 Y103.84 E20.886
G1 X102.039 Y103.96 E20.89916
;WIDTH:0.53486
G1 X101.804 Y104.08 E20.91143
;WIDTH:0.499999
G1 X101.774 Y104.118 E20.91352
M204 S20000
G1 X101.774 Y104.118 F18000
G1 X101.593 Y104.073
M204 S5000
;TYPE:Solid infill
;WIDTH:0.502333
G1 F4800
G1 X101.192 Y103.672 E20.93812
G1 X100.558 Y103.672 E20.96562
G1 X101.172 Y104.287 E21.00331
G1 X101.091 Y104.391 E21.00903
G1 X101.016 Y104.765 E21.02557
G1 X99.923 Y103.672 E21.09261
G1 X99.289 Y103.672 E21.12011
G1 X100.978 Y105.361 E21.22371
G1 X100.978 Y105.996 E21.25125
G1 X98.654 Y103.672 E21.39379
G1 X98.02 Y103.672 E21.42129
G1 X100.978 Y106.63 E21.60272
G1 X100.978 Y107.265 E21.63026
G1 X97.385 Y103.672 E21.85064
G1 X96.75 Y103.672 E21.87818
G1 X100.978 Y107.9 E22.13751
G1 X100.978 Y108.534 E22.16501
G1 X96.116 Y103.672 E22.46322
G1 X95.481 Y103.672 E22.49076
G1 X100.978 Y109.169 E22.82792
G1 X100.978 Y109.803 E22.85542
G1 X94.847 Y103.672 E23.23147
G1 X94.212 Y103.672 E23.25901
G1 X100.978 Y110.438 E23.67401
G1 X100.978 Y111.072 E23.70151
G1 X93.672 Y103.766 E24.14963
G1 X93.672 Y104.401 E24.17717
G1 X100.978 Y111.707 E24.62529
G1 X100.978 Y112.341 E24.65279
G1 X93.672 Y105.035 E25.10091
G1 X93.672 Y105.67 E25.12845
G1 X100.978 Y112.976 E25.57657
G1 X100.978 Y113.61 E25.60407
G1 X93.672 Y106.305 E26.05216
G1 X93.672 Y106.939 E26.07966
G1 X100.978 Y114.245 E26.52778
G1 X100.978 Y114.879 E26.55528
G1 X93.672 Y107.574 E27.00337
G1 X93.672 Y108.208 E27.03087
G1 X101.777 Y116.313 E27.52799
G1 X101.157 Y116.328 E27.55489
G1 X93.672 Y108.843 E28.01399
G1 X93.672 Y109.477 E28.04149
G1 X100.523 Y116.328 E28.4617
G1 X99.888 Y116.328 E28.48924
G1 X93.672 Y110.112 E28.8705
G1 X93.672 Y110.746 E28.898
G1 X99.254 Y116.328 E29.24037
G1 X98.619 Y116.328 E29.26791
G1 X93.672 Y111.381 E29.57134
G1 X93.672 Y112.015 E29.59884
G1 X97.985 Y116.328 E29.86338
G1 X97.35 Y116.328 E29.89092
G1 X93.672 Y112.65 E30.11651
G1 X93.672 Y113.284 E30.14401
G1 X96.716 Y116.328 E30.33072
G1 X96.081 Y116.328 E30.35826
G1 X93.672 Y113.919 E30.50602
G1 X93.672 Y114.553 E30.53352
G1 X95.447 Y116.328 E30.64239
G1 X94.812 Y116.328 E30.66993
G1 X93.672 Y115.188 E30.73985
G1 X93.672 Y115.823 E30.76739
G1 X94.378 Y116.529 E30.81069
M204 S20000
;WIPE_START
G1 F14400
G1 X93.672 Y115.823 E30.49452
G1 X93.672 Y115.188 E30.29344
G1 X94.812 Y116.328 E29.78291
G1 X95.447 Y116.328 E29.58183
G1 X93.672 Y114.553 E28.78692
G1 X93.672 Y113.919 E28.58615
G1 X96.081 Y116.328 E27.50732
G1 X96.716 Y116.328 E27.30624
G1 X93.672 Y113.284 E25.94303
G1 X93.672 Y112.866 E25.81069
;WIPE_END
G92 E0
G1 X126.529 Y114.254 F18000
G1 E5 F4800
M204 S5000
;WIDTH:0.514217
G1 X125.797 Y113.522 E5.04609
G1 X125.146 Y113.522 E5.07507
G1 X126.328 Y114.704 E5.14949
G1 X126.328 Y115.356 E5.17852
G1 X124.495 Y113.522 E5.29396
G1 X123.843 Y113.522 E5.32299
G1 X126.328 Y116.007 E5.47945
G1 X126.328 Y116.328 E5.49374
G1 X125.998 Y116.328 E5.50843
G1 X123.192 Y113.522 E5.6851
G1 X122.54 Y113.522 E5.71413
G1 X125.346 Y116.328 E5.8908
G1 X124.695 Y116.328 E5.91978
G1 X121.889 Y113.522 E6.09645
G1 X121.238 Y113.522 E6.12543
G1 X124.044 Y116.328 E6.3021
G1 X123.392 Y116.328 E6.33113
G1 X120.586 Y113.522 E6.5078
G1 X119.935 Y113.522 E6.53678
G1 X122.741 Y116.328 E6.71345
G1 X122.09 Y116.328 E6.74243
G1 X119.284 Y113.522 E6.9191
G1 X119.022 Y113.522 E6.93076
G1 X119.022 Y113.912 E6.94812
G1 X121.438 Y116.328 E7.10023
G1 X120.787 Y116.328 E7.12921
G1 X119.022 Y114.563 E7.24033
G1 X119.022 Y115.042 E7.26165
G1 X118.993 Y115.186 E7.26819
G1 X120.136 Y116.328 E7.34012
G1 X119.484 Y116.328 E7.36915
G1 X118.846 Y115.69 E7.40932
G1 X118.561 Y116.056 E7.42997
G1 X119.034 Y116.529 E7.45975
M204 S20000
;WIPE_START
G1 F14400
G1 X118.561 Y116.056 E7.24792
G1 X118.846 Y115.69 E7.10103
G1 X119.484 Y116.328 E6.81531
G1 X120.136 Y116.328 E6.60884
G1 X118.993 Y115.186 E6.09719
G1 X119.022 Y115.042 E6.05067
G1 X119.022 Y114.563 E5.89899
G1 X120.787 Y116.328 E5.10856
G1 X121.438 Y116.328 E4.90241
G1 X119.022 Y113.912 E3.82044
G1 X119.022 Y113.522 E3.69694
G1 X119.284 Y113.522 E3.61397
G1 X121.861 Y116.099 E2.45975
;WIPE_END
G92 E0
G1 X126.529 Y104.398 F18000
G1 E5 F4800
M204 S5000
;WIDTH:0.511371
G1 X125.803 Y103.672 E5.04543
G1 X125.156 Y103.672 E5.07406
G1 X126.328 Y104.844 E5.14739
G1 X126.328 Y105.491 E5.17602
G1 X124.509 Y103.672 E5.28984
G1 X123.861 Y103.672 E5.31851
G1 X126.328 Y106.139 E5.47287
G1 X126.328 Y106.478 E5.48787
G1 X126.02 Y106.478 E5.5015
G1 X123.214 Y103.672 E5.67707
G1 X122.567 Y103.672 E5.7057
G1 X125.372 Y106.478 E5.88124
G1 X124.725 Y106.478 E5.90987
G1 X121.919 Y103.672 E6.08544
G1 X121.272 Y103.672 E6.11407
G1 X124.078 Y106.478 E6.28964
G1 X123.431 Y106.478 E6.31827
G1 X120.625 Y103.672 E6.49384
G1 X119.977 Y103.672 E6.52251
G1 X122.783 Y106.478 E6.69808
G1 X122.136 Y106.478 E6.72671
G1 X119.33 Y103.672 E6.90228
G1 X118.683 Y103.672 E6.93091
G1 X121.489 Y106.478 E7.10648
G1 X120.841 Y106.478 E7.13515
G1 X118.947 Y104.584 E7.25366
G1 X119.022 Y104.958 E7.27054
G1 X119.022 Y105.306 E7.28594
G1 X120.194 Y106.478 E7.35927
G1 X119.547 Y106.478 E7.3879
G1 X118.821 Y105.753 E7.4333
M204 S20000
;LAYER_CHANGE
;Z:0.45
;HEIGHT:0.2
; BEFORE_LAYER_CHANGE 1 @ 0.45mm
G1 Z.45 F18000
; AFTER_LAYER_CHANGE 1 @ 0.45mm
M104 S200 ; set temperature
G1 E2.4333 F4800
G92 E0
G1 X118.821 Y105.753 Z.45 F18000
G1 X102.328 Y104.865
G1 E5 F4800
G92 E0
M204 S5000
;TYPE:External perimeter
;WIDTH:0.419999
G1 F7200
G1 X102.29 Y104.979 E.0035
G1 X102.29 Y115.021 E.29632
G1 X102.328 Y115.135 E.29982
G1 X102.479 Y115.21 E.30474
G1 X117.521 Y115.21 E.74336
G1 X117.672 Y115.135 E.74828
G1 X117.71 Y115.021 E.75178
G1 X117.71 Y112.21 E.83375
G1 X127.64 Y112.21 E1.1233
G1 X127.64 Y114.925 E1.20247
G1 X127.64 Y117.64 E1.28164
G1 X92.36 Y117.64 E2.31039
G1 X92.36 Y102.36 E2.75595
G1 X127.64 Y102.36 E3.7847
G1 X127.64 Y107.79 E3.94304
G1 X117.71 Y107.79 E4.23259
G1 X117.71 Y105.075 E4.31176
G1 X117.672 Y104.865 E4.31798
G1 X117.521 Y104.79 E4.3229
G1 X102.479 Y104.79 E4.76152
G1 X102.381 Y104.839 E4.76471
M204 S20000
G1 X102.381 Y104.839 F18000
G1 X102.046 Y104.603
M204 S10000
;TYPE:Perimeter
;WIDTH:0.449999
G1 F16176
G1 X102.014 Y104.63 E4.76603
G1 X101.921 Y104.816 E4.77258
G1 X101.898 Y104.979 E4.77776
G1 X101.898 Y115.021 E5.09388
G1 X101.921 Y115.184 E5.09906
G1 X102.014 Y115.37 E5.10561
G1 X102.205 Y115.534 E5.11353
G1 X102.479 Y115.602 E5.12242
G1 X117.521 Y115.602 E5.59593
G1 X117.795 Y115.534 E5.60482
G1 X117.986 Y115.37 E5.61274
G1 X118.079 Y115.184 E5.61929
G1 X118.102 Y115.021 E5.62447
G1 X118.102 Y112.602 E5.70062
G1 X127.248 Y112.602 E5.98853
G1 X127.248 Y114.925 E6.06166
G1 X127.248 Y117.248 E6.13479
G1 X92.752 Y117.248 E7.2207
G1 X92.752 Y102.752 E7.67702
G1 X127.248 Y102.752 E8.76293
G1 X127.248 Y107.398 E8.90918
G1 X118.102 Y107.398 E9.19709
G1 X118.102 Y105.075 E9.27022
G1 X118.079 Y104.816 E9.27841
G1 X117.986 Y104.63 E9.28496
G1 X117.795 Y104.466 E9.29288
G1 X117.521 Y104.398 E9.30177
G1 X102.479 Y104.398 E9.77528
G1 X102.205 Y104.466 E9.78417
G1 X102.092 Y104.564 E9.78888
M204 S20000
G1 X102.092 Y104.564 F18000
G1 X101.754 Y104.33
M204 S10000
G1 F16176
G1 X101.688 Y104.386 E9.7916
G1 X101.53 Y104.702 E9.80272
G1 X101.491 Y104.979 E9.81153
G1 X101.491 Y115.021 E10.12765
G1 X101.53 Y115.298 E10.13646
G1 X101.688 Y115.614 E10.14758
G1 X102.014 Y115.893 E10.16109
G1 X102.479 Y116.009 E10.17618
G1 X117.521 Y116.009 E10.64969
G1 X117.692 Y115.994 E10.65509
G1 X117.986 Y115.893 E10.66488
G1 X118.312 Y115.614 E10.67839
G1 X118.47 Y115.298 E10.68951
G1 X118.509 Y115.021 E10.69832
G1 X118.509 Y113.009 E10.76166
G1 X126.841 Y113.009 E11.02395
G1 X126.841 Y114.925 E11.08426
G1 X126.841 Y116.841 E11.14457
G1 X93.159 Y116.841 E12.20486
G1 X93.159 Y103.159 E12.63556
G1 X126.841 Y103.159 E13.69585
G1 X126.841 Y106.991 E13.81648
G1 X118.509 Y106.991 E14.07877
G1 X118.509 Y105.075 E14.13908
G1 X118.47 Y104.702 E14.15089
G1 X118.312 Y104.386 E14.16201
G1 X117.986 Y104.107 E14.17552
G1 X117.521 Y103.991 E14.19061
G1 X102.479 Y103.991 E14.66412
G1 X102.308 Y104.006 E14.66952
G1 X102.014 Y104.107 E14.67931
G1 X101.799 Y104.291 E14.68822
M204 S20000
;WIPE_START
G1 F14400
G1 X101.754 Y104.33 E14.66936
G1 X101.688 Y104.386 E14.64195
G1 X101.53 Y104.702 E14.53007
G1 X101.491 Y104.979 E14.44149
G1 X101.491 Y115.021 E11.26152
G1 X101.53 Y115.298 E11.17294
G1 X101.688 Y115.614 E11.06106
G1 X102.014 Y115.893 E10.92518
G1 X102.479 Y116.009 E10.77342
G1 X105.906 Y116.009 E9.68822
;WIPE_END
G92 E0
G1 X101.145 Y105.245 F18000
G1 E5 F4800
M204 S10000
;TYPE:Solid infill
G1 F14400
G1 X93.505 Y112.885 E5.34012
G1 X93.505 Y113.461 E5.35825
G1 X101.145 Y105.821 E5.69837
G1 X101.145 Y106.397 E5.7165
G1 X93.505 Y114.036 E6.0566
G1 X93.505 Y114.612 E6.07473
G1 X101.145 Y106.972 E6.41485
G1 X101.145 Y107.548 E6.43298
G1 X93.505 Y115.188 E6.7731
G1 X93.505 Y115.763 E6.7912
G1 X101.145 Y108.124 E7.1313
G1 X101.145 Y108.699 E7.1494
G1 X93.505 Y116.339 E7.48952
G1 X93.473 Y116.465 E7.49361
;WIDTH:0.41646
G1 X93.44 Y116.59 E7.49734
;WIDTH:0.38292
G1 X93.369 Y116.571 E7.49927
G1 X93.388 Y116.642 E7.5012
G1 X93.429 Y116.631 E7.50232
;WIDTH:0.449999
G1 X93.925 Y116.495 E7.51851
G1 X101.145 Y109.275 E7.83993
G1 X101.145 Y109.851 E7.85806
G1 X94.501 Y116.495 E8.15384
G1 X95.077 Y116.495 E8.17197
G1 X101.145 Y110.427 E8.44211
G1 X101.145 Y111.002 E8.46021
G1 X95.652 Y116.495 E8.70475
G1 X96.228 Y116.495 E8.72288
G1 X101.145 Y111.578 E8.94178
G1 X101.145 Y112.154 E8.95991
G1 X96.804 Y116.495 E9.15316
G1 X97.379 Y116.495 E9.17126
G1 X101.145 Y112.729 E9.33892
G1 X101.145 Y113.305 E9.35705
G1 X97.955 Y116.495 E9.49906
M204 S20000
;WIPE_START
G1 X101.145 Y113.305 E8.07047
G1 X101.145 Y112.729 E7.88807
G1 X97.379 Y116.495 E6.20153
G1 X96.804 Y116.495 E6.01945
G1 X100.199 Y113.1 E4.49906
;WIPE_END
G92 E0
G1 X101.145 Y114.084 F18000
G1 E5 F4800
M204 S10000
G1 F14400
G1 X101.145 Y115.017 E5.02937
G1 X101.204 Y115.41 E5.04188
G1 X101.442 Y115.852 E5.05768
G1 X101.897 Y116.214 E5.07598
;WIDTH:0.499312
G1 X102.071 Y116.283 E5.08259
;WIDTH:0.548624
G1 X102.245 Y116.352 E5.08991
;WIDTH:0.597936
G1 X102.419 Y116.421 E5.09794
G1 X102.233 Y116.446 E5.10599
;WIDTH:0.548624
G1 X102.048 Y116.47 E5.11329
;WIDTH:0.499312
G1 X101.863 Y116.495 E5.11988
;WIDTH:0.449999
G1 X98.531 Y116.495 E5.22477
G1 X101.145 Y113.881 E5.34114
M204 S20000
;WIPE_START
G1 X98.531 Y116.495 E4.1705
G1 X101.863 Y116.495 E3.11537
G1 X102.048 Y116.47 E3.05625
G1 X102.233 Y116.446 E2.99718
G1 X102.419 Y116.421 E2.93775
G1 X102.245 Y116.352 E2.87848
G1 X102.071 Y116.283 E2.81921
G1 X101.897 Y116.214 E2.75994
G1 X101.442 Y115.852 E2.57582
G1 X101.204 Y115.41 E2.41685
G1 X101.145 Y115.017 E2.29101
G1 X101.145 Y114.084 E1.99556
;WIPE_END
G1 E.34114 F4800
G92 E0
G1 X100.738 Y114.864 F18000
G1 E5 F4800
M204 S10000
G1 F14400
G1 X99.514 Y116.088 E5.05449
G1 X101.12 Y116.088 E5.10505
G1 X100.848 Y115.61 E5.12236
G1 X100.743 Y115.067 E5.13977
M204 S20000
;WIPE_START
G1 X100.848 Y115.61 E4.96463
G1 X101.12 Y116.088 E4.79047
G1 X99.514 Y116.088 E4.2819
G1 X100.738 Y114.864 E3.73375
;WIPE_END
G1 E.13977 F4800
G92 E0
G1 X93.599 Y103.599 F18000
G1 E5 F4800
M204 S10000
;WIDTH:0.548766
G1 F14400
G1 X93.538 Y103.616 E5.00248
G1 X93.493 Y103.571 E5.00497
G1 X93.51 Y103.51 E5.00745
G1 X93.571 Y103.493 E5.00993
G1 X93.616 Y103.538 E5.01242
;WIDTH:0.449999
G1 X94.249 Y103.505 E5.03237
G1 X93.439 Y104.322 E5.06859
;WIDTH:0.41646
G1 X93.372 Y104.395 E5.07145
;WIDTH:0.38292
G1 X93.301 Y104.376 E5.07338
G1 X93.32 Y104.447 E5.07531
G1 X93.361 Y104.436 E5.07643
;WIDTH:0.449999
G1 X93.505 Y104.825 E5.08949
G1 X94.825 Y103.505 E5.14825
G1 X95.401 Y103.505 E5.16638
G1 X93.505 Y105.401 E5.25079
G1 X93.505 Y105.977 E5.26892
