; generated by PrusaSlicer 2.7.4+linux-x64-GTK3 on 2025-02-19 at 21:33:12 UTC


;
;
; 

; external perimeters extrusion width = 0.42mm
; perimeters extrusion width = 0.45mm
; infill extrusion width = 0.45mm
; solid infill extrusion width = 0.45mm
; top infill extrusion width = 0.42mm
; support material extrusion width = 0.42mm
; first layer extrusion width = 0.50mm

;TYPE:Custom
G90 ; use absolute coordinates
M83 ; extruder relative mode
M140 S60 ; set bed temp
M190 S60 ; wait for bed temp
M104 S200 ; set extruder temp
M109 S200 ; wait for extruder temp
G28                                        ; move X/Y/Z to min endstops
G1 Z0.28                                   ; lift nozzle a bit 
G92 E0 
G1 Y3 F2400                                    ; zero the extruded length 
G1 X180  E40 F500                       ; Extrude 25mm of filament in a 5cm line. 
G92 E0                                     ; zero the extruded length again 
G1 E-0.2 F3000                                ; Retract a little 
G1 X181 F4000                              ; Quickly wipe away from the filament line
M117
G21 ; set units to millimeters
G90 ; use absolute coordinates
M82 ; use absolute distances for extrusion
G92 E0
M107
;LAYER_CHANGE
;Z:0.24
;HEIGHT:0.24
G1 E-3 F4800
G1 Z.24 F18000
G1 X94.636 Y103.894
G1 E0 F4800
M204 S5000
;TYPE:Skirt/Brim
;WIDTH:0.5
G1 X95.078 Y103.592 E.02276
G1 X95.529 Y103.406 E.0435
G1 X96.044 Y103.308 E.06579
G1 X134.005 Y103.313 E1.67965
G1 X134.521 Y103.422 E1.70207
G1 X135.198 Y103.76 E1.73424
G1 X136.105 Y104.635 E1.78782
G1 X136.428 Y105.117 E1.81249
G1 X136.692 Y106.043 E1.85343
G1 X136.692 Y123.956 E2.61497
G1 X136.58 Y124.516 E2.63925
G1 X136.24 Y125.198 E2.67165
G1 X135.364 Y126.106 E2.72529
G1 X134.922 Y126.408 E2.74805
G1 X134.471 Y126.594 E2.76879
G1 X133.956 Y126.692 E2.79108
G1 X96.044 Y126.692 E4.40285
G1 X95.484 Y126.58 E4.42713
G1 X94.802 Y126.24 E4.45953
G1 X93.894 Y125.364 E4.51317
G1 X93.592 Y124.922 E4.53593
G1 X93.406 Y124.471 E4.55667
G1 X93.308 Y123.956 E4.57896
G1 X93.308 Y106.044 E5.34046
G1 X93.42 Y105.484 E5.36474
G1 X93.76 Y104.802 E5.39714
G1 X94.594 Y103.937 E5.44822
M204 S20000
G1 X94.594 Y103.937 F18000
G1 X94.915 Y104.25
M204 S5000
G1 F4800
G1 X94.94 Y104.224 E5.44975
G1 X95.307 Y103.979 E5.46851
G1 X96.065 Y103.757 E5.50209
G1 X133.981 Y103.761 E7.11403
G1 X134.691 Y103.978 E7.14559
G1 X134.943 Y104.13 E7.1581
G1 X135.776 Y104.94 E7.2075
G1 X136.021 Y105.307 E7.22626
G1 X136.243 Y106.065 E7.25984
G1 X136.243 Y123.934 E8.01951
G1 X136.022 Y124.691 E8.05304
G1 X135.87 Y124.943 E8.06555
G1 X135.06 Y125.776 E8.11495
G1 X134.693 Y126.021 E8.13371
G1 X133.935 Y126.243 E8.16729
G1 X96.066 Y126.243 E9.77723
G1 X95.309 Y126.022 E9.81076
G1 X95.057 Y125.87 E9.82327
G1 X94.224 Y125.06 E9.87267
G1 X93.979 Y124.693 E9.89143
G1 X93.757 Y123.935 E9.92501
G1 X93.757 Y106.066 E10.68468
G1 X93.843 Y105.635 E10.70336
G1 X94.13 Y105.057 E10.7308
G1 X94.874 Y104.293 E10.77614
M204 S20000
G1 X94.874 Y104.293 F18000
G1 X95.193 Y104.607
M204 S5000
G1 F4800
G1 X95.243 Y104.556 E10.77918
G1 X95.499 Y104.384 E10.79229
G1 X96.088 Y104.205 E10.81846
G1 X133.956 Y104.21 E12.42836
G1 X134.685 Y104.498 E12.46168
G1 X135.444 Y105.243 E12.50689
G1 X135.616 Y105.499 E12.52
G1 X135.795 Y106.088 E12.54617
G1 X135.795 Y123.912 E13.30393
G1 X135.735 Y124.214 E13.31702
G1 X135.502 Y124.685 E13.33936
G1 X134.757 Y125.444 E13.38457
G1 X134.501 Y125.616 E13.39768
G1 X133.912 Y125.795 E13.42385
G1 X96.088 Y125.795 E15.03188
G1 X95.786 Y125.735 E15.04497
G1 X95.315 Y125.502 E15.06731
G1 X94.556 Y124.757 E15.11252
G1 X94.384 Y124.501 E15.12563
G1 X94.205 Y123.912 E15.1518
G1 X94.205 Y106.088 E15.90956
G1 X94.265 Y105.786 E15.92265
G1 X94.498 Y105.315 E15.94499
G1 X95.151 Y104.649 E15.98464
M204 S20000
G1 X95.151 Y104.649 F18000
G1 X95.469 Y104.965
M204 S5000
G1 F4800
G1 X95.545 Y104.888 E15.98924
G1 X96.11 Y104.654 E16.01524
G1 X133.931 Y104.658 E17.62314
G1 X134.311 Y104.791 E17.64026
G1 X135.112 Y105.545 E17.68703
G1 X135.346 Y106.11 E17.71303
G1 X135.346 Y123.89 E18.46892
G1 X135.209 Y124.311 E18.48774
G1 X134.455 Y125.112 E18.53451
G1 X133.89 Y125.346 E18.56051
G1 X96.11 Y125.346 E20.16667
G1 X95.689 Y125.209 E20.18549
G1 X94.888 Y124.455 E20.23226
G1 X94.654 Y123.89 E20.25826
G1 X94.654 Y106.11 E21.01415
G1 X94.862 Y105.577 E21.03847
G1 X95.427 Y105.007 E21.07259
M204 S20000
G1 X95.427 Y105.007 F18000
G1 X95.745 Y105.332
M204 S5000
G1 F4800
G1 X95.883 Y105.196 E21.08083
G1 X96.132 Y105.102 E21.09215
G1 X133.911 Y105.111 E22.69827
G1 X134.153 Y105.221 E22.70957
G1 X134.779 Y105.847 E22.74721
G1 X134.898 Y106.132 E22.76034
G1 X134.898 Y123.868 E23.51436
G1 X134.779 Y124.153 E23.52749
G1 X134.117 Y124.804 E23.56696
G1 X133.868 Y124.898 E23.57828
G1 X96.132 Y124.898 E25.18257
G1 X95.847 Y124.779 E25.1957
G1 X95.196 Y124.117 E25.23517
G1 X95.102 Y123.868 E25.24649
G1 X95.102 Y106.132 E26.00051
G1 X95.221 Y105.847 E26.01364
G1 X95.702 Y105.374 E26.04232
M204 S20000
G1 X95.702 Y105.374 F18000
G1 X96.032 Y105.677
M204 S5000
G1 F4800
G1 X96.117 Y105.585 E26.04765
G1 X133.801 Y105.551 E27.64973
G1 X134.449 Y106.199 E27.68869
G1 X134.449 Y123.801 E28.43701
G1 X133.883 Y124.415 E28.47251
G1 X96.199 Y124.449 E30.07459
G1 X95.585 Y123.883 E30.11009
G1 X95.551 Y106.199 E30.8619
G1 X95.991 Y105.721 E30.88952
M204 S20000
;WIPE_START
G1 F14400
G1 X96.032 Y105.677 E30.87048
G1 X96.117 Y105.585 E30.83082
G1 X105.405 Y105.577 E27.88952
;WIPE_END
G92 E0
G92 E0
G1 X119.536 Y128.611 F18000
G1 E3 F4800
M204 S5000
;TYPE:Support material
G1 X118.914 Y129.547 E3.04778
G1 X118.468 Y129.971 E3.07394
G1 X118.049 Y130.348 E3.0979
G1 X117.071 Y130.894 E3.14552
G1 X115.971 Y131.202 E3.19408
G1 X114.829 Y131.242 E3.24266
G1 X113.752 Y131.021 E3.2894
G1 X112.62 Y130.482 E3.3427
G1 X111.776 Y129.799 E3.38886
G1 X111.119 Y128.939 E3.43487
G1 X110.686 Y127.975 E3.4798
G1 X119.767 Y127.975 E3.86587
G1 X119.559 Y128.548 E3.89179
M204 S20000
G1 X119.559 Y128.548 F18000
G1 X118.987 Y129.073
M204 S5000
G1 F4800
G1 X118.987 Y128.379 E3.92129
G1 X118.488 Y128.379 E3.9425
G1 X118.488 Y129.395 E3.98569
G1 X117.99 Y129.858 E4.0146
G1 X117.99 Y128.379 E4.07748
G1 X117.492 Y128.379 E4.09865
G1 X117.492 Y130.197 E4.17594
G1 X116.993 Y130.475 E4.20022
G1 X116.993 Y128.379 E4.28933
G1 X116.495 Y128.379 E4.3105
G1 X116.495 Y130.636 E4.40645
G1 X115.997 Y130.776 E4.42844
G1 X115.997 Y128.379 E4.53034
G1 X115.498 Y128.379 E4.55155
G1 X115.498 Y130.815 E4.65511
G1 X115 Y130.832 E4.67629
G1 X115 Y128.379 E4.78058
G1 X114.502 Y128.379 E4.80175
G1 X114.502 Y130.763 E4.9031
G1 X114.003 Y130.661 E4.92475
G1 X114.003 Y128.379 E5.02177
G1 X113.505 Y128.379 E5.04294
G1 X113.505 Y130.474 E5.13201
G1 X113.007 Y130.23 E5.15559
G1 X113.007 Y128.379 E5.23428
G1 X112.508 Y128.379 E5.25549
G1 X112.508 Y129.873 E5.31901
G1 X112.01 Y129.441 E5.34704
G1 X112.01 Y128.379 E5.39219
G1 X111.512 Y128.379 E5.41336
G1 X111.512 Y129.121 E5.44491
M204 S20000
;WIPE_START
G1 F14400
G1 X111.512 Y128.379 E5.20994
G1 X112.01 Y128.379 E5.05224
G1 X112.01 Y129.441 E4.71594
G1 X112.508 Y129.873 E4.50717
G1 X112.508 Y128.379 E4.03407
G1 X113.007 Y128.379 E3.87605
G1 X113.007 Y130.23 E3.2899
G1 X113.505 Y130.474 E3.11429
G1 X113.505 Y128.379 E2.45087
G1 X113.524 Y128.379 E2.44491
;WIPE_END
G92 E0
G1 X96.825 Y106.825 F18000
G1 E3 F4800
M204 S5000
;TYPE:External perimeter
;WIDTH:0.499999
G1 X133.175 Y106.825 E4.54536
G1 X133.175 Y111.788 E4.75635
G1 X133.175 Y123.175 E5.24045
G1 X96.825 Y123.175 E6.78581
G1 X96.825 Y106.885 E7.47835
M204 S20000
G1 X97.273 Y107.273 F18000
M204 S5000
;TYPE:Perimeter
G1 F4800
G1 X132.727 Y107.273 E8.98562
G1 X132.727 Y111.788 E9.17757
G1 X132.727 Y122.727 E9.64262
G1 X97.273 Y122.727 E11.14989
G1 X97.273 Y107.333 E11.80434
M204 S20000
;WIPE_START
G1 F14400
G1 X97.273 Y107.273 E11.78534
G1 X106.687 Y107.273 E8.80434
;WIPE_END
G92 E0
G1 X106.75 Y109.474 F18000
G1 E3 F4800
M204 S5000
;TYPE:External perimeter
G1 X106.795 Y109.34 E3.00601
G1 X106.936 Y109.253 E3.01305
G1 X106.974 Y109.25 E3.01467
G1 X123.026 Y109.25 E3.6971
G1 X123.205 Y109.34 E3.70562
G1 X123.25 Y109.474 E3.71163
G1 X123.25 Y120.526 E4.18149
G1 X123.205 Y120.66 E4.1875
G1 X123.065 Y120.747 E4.19451
G1 X123.026 Y120.75 E4.19617
G1 X106.974 Y120.75 E4.8786
G1 X106.795 Y120.66 E4.88712
G1 X106.75 Y120.526 E4.89313
G1 X106.75 Y109.534 E5.36044
M204 S20000
G1 X106.75 Y109.534 F18000
G1 X106.302 Y109.893
M204 S5000
;TYPE:Perimeter
G1 F4800
G1 X106.302 Y109.474 E5.37825
G1 X106.328 Y109.286 E5.38632
G1 X106.436 Y109.071 E5.39655
G1 X106.658 Y108.881 E5.40897
G1 X106.974 Y108.802 E5.42282
G1 X123.026 Y108.802 E6.10525
G1 X123.342 Y108.881 E6.1191
G1 X123.564 Y109.071 E6.13152
G1 X123.672 Y109.286 E6.14175
G1 X123.698 Y109.474 E6.14982
G1 X123.698 Y120.526 E6.61968
G1 X123.672 Y120.714 E6.62775
G1 X123.564 Y120.929 E6.63798
G1 X123.342 Y121.119 E6.6504
G1 X123.026 Y121.198 E6.66425
G1 X106.974 Y121.198 E7.34668
G1 X106.658 Y121.119 E7.36053
G1 X106.436 Y120.929 E7.37295
G1 X106.328 Y120.714 E7.38318
G1 X106.302 Y120.526 E7.39125
G1 X106.302 Y109.953 E7.84074
M204 S20000
;WIPE_START
G1 F14400
G1 X106.302 Y109.893 E7.82174
G1 X106.302 Y109.474 E7.68906
G1 X106.328 Y109.286 E7.62896
G1 X106.436 Y109.071 E7.55277
G1 X106.658 Y108.881 E7.46024
G1 X106.974 Y108.802 E7.35709
G1 X114.92 Y108.802 E4.84074
;WIPE_END
G92 E0
G1 X132.547 Y108.363 F18000
G1 E3 F4800
M204 S5000
;TYPE:Solid infill
;WIDTH:0.501529
G1 X131.839 Y107.655 E3.04271
G1 X131.203 Y107.655 E3.06984
G1 X132.345 Y108.797 E3.13873
G1 X132.345 Y109.434 E3.1659
G1 X130.566 Y107.655 E3.27322
G1 X129.93 Y107.655 E3.30035
G1 X132.345 Y110.07 E3.44604
G1 X132.345 Y110.707 E3.47321
G1 X129.293 Y107.655 E3.65733
G1 X128.657 Y107.655 E3.68446
G1 X132.345 Y111.343 E3.90695
G1 X132.345 Y111.98 E3.93412
G1 X128.02 Y107.655 E4.19504
G1 X127.384 Y107.655 E4.22217
G1 X132.345 Y112.616 E4.52146
G1 X132.345 Y113.252 E4.54859
G1 X126.748 Y107.655 E4.88625
G1 X126.111 Y107.655 E4.91342
G1 X132.345 Y113.889 E5.28951
G1 X132.345 Y114.525 E5.31664
G1 X125.475 Y107.655 E5.73109
G1 X124.838 Y107.655 E5.75826
G1 X132.345 Y115.162 E6.21114
G1 X132.345 Y115.798 E6.23827
G1 X124.202 Y107.655 E6.72952
G1 X123.565 Y107.655 E6.75669
G1 X132.345 Y116.435 E7.28637
G1 X132.345 Y117.071 E7.3135
G1 X122.929 Y107.655 E7.88155
G1 X122.293 Y107.655 E7.90868
G1 X123.063 Y108.425 E7.95513
G1 X123.522 Y108.539 E7.97531
G1 X123.87 Y108.838 E7.99488
G1 X124.039 Y109.176 E8.011
G1 X124.076 Y109.438 E8.02229
G1 X132.345 Y117.707 E8.52114
G1 X132.345 Y118.344 E8.54831
G1 X124.08 Y110.078 E9.04695
G1 X124.08 Y110.715 E9.07412
G1 X132.345 Y118.98 E9.57273
G1 X132.345 Y119.617 E9.5999
G1 X124.08 Y111.351 E10.09854
G1 X124.08 Y111.988 E10.12571
G1 X132.345 Y120.253 E10.62432
G1 X132.345 Y120.89 E10.65149
G1 X124.08 Y112.624 E11.15013
G1 X124.08 Y113.26 E11.17726
G1 X132.345 Y121.526 E11.6759
G1 X132.345 Y122.162 E11.70303
G1 X124.08 Y113.897 E12.20164
G1 X124.08 Y114.533 E12.22877
G1 X131.892 Y122.345 E12.70005
G1 X131.255 Y122.345 E12.72722
G1 X124.08 Y115.17 E13.16007
G1 X124.08 Y115.806 E13.1872
G1 X130.619 Y122.345 E13.58169
G1 X129.982 Y122.345 E13.60886
G1 X124.08 Y116.443 E13.96492
G1 X124.08 Y117.079 E13.99205
G1 X129.346 Y122.345 E14.30974
G1 X128.71 Y122.345 E14.33687
G1 X124.08 Y117.715 E14.61619
G1 X124.08 Y118.352 E14.64336
G1 X128.073 Y122.345 E14.88425
G1 X127.437 Y122.345 E14.91138
G1 X124.08 Y118.988 E15.1139
G1 X124.08 Y119.625 E15.14107
G1 X126.8 Y122.345 E15.30516
G1 X126.164 Y122.345 E15.33229
G1 X124.08 Y120.261 E15.45801
G1 X124.08 Y120.537 E15.46978
G1 X124.028 Y120.846 E15.48315
G1 X125.527 Y122.345 E15.57358
G1 X124.891 Y122.345 E15.60071
G1 X123.783 Y121.237 E15.66755
G1 X123.527 Y121.456 E15.68192
G1 X123.407 Y121.497 E15.68733
G1 X124.255 Y122.345 E15.73849
G1 X123.618 Y122.345 E15.76566
G1 X122.853 Y121.58 E15.81181
G1 X122.216 Y121.58 E15.83898
G1 X122.982 Y122.345 E15.88516
G1 X122.345 Y122.345 E15.91233
G1 X121.58 Y121.58 E15.95848
G1 X120.943 Y121.58 E15.98565
G1 X121.709 Y122.345 E16.03183
G1 X121.072 Y122.345 E16.059
G1 X120.307 Y121.58 E16.10515
G1 X119.67 Y121.58 E16.13232
G1 X120.436 Y122.345 E16.1785
G1 X119.8 Y122.345 E16.20563
G1 X119.034 Y121.58 E16.25181
G1 X118.398 Y121.58 E16.27894
G1 X119.163 Y122.345 E16.32509
G1 X118.527 Y122.345 E16.35222
G1 X117.761 Y121.58 E16.3984
G1 X117.125 Y121.58 E16.42553
G1 X117.89 Y122.345 E16.47168
G1 X117.254 Y122.345 E16.49881
G1 X116.488 Y121.58 E16.54499
G1 X115.852 Y121.58 E16.57212
G1 X116.617 Y122.345 E16.61827
G1 X115.981 Y122.345 E16.6454
G1 X115.215 Y121.58 E16.69158
G1 X114.579 Y121.58 E16.71871
G1 X115.344 Y122.345 E16.76486
G1 X114.708 Y122.345 E16.79199
G1 X113.942 Y121.58 E16.83817
G1 X113.306 Y121.58 E16.8653
G1 X114.072 Y122.345 E16.91148
G1 X113.435 Y122.345 E16.93865
G1 X112.67 Y121.58 E16.9848
G1 X112.033 Y121.58 E17.01197
G1 X112.799 Y122.345 E17.05815
G1 X112.162 Y122.345 E17.08532
G1 X111.397 Y121.58 E17.13147
G1 X110.76 Y121.58 E17.15864
G1 X111.526 Y122.345 E17.20482
G1 X110.889 Y122.345 E17.23199
G1 X110.124 Y121.58 E17.27814
G1 X109.487 Y121.58 E17.30531
G1 X110.253 Y122.345 E17.35149
G1 X109.617 Y122.345 E17.37862
G1 X108.851 Y121.58 E17.4248
G1 X108.215 Y121.58 E17.45193
G1 X108.98 Y122.345 E17.49808
G1 X108.344 Y122.345 E17.52521
G1 X107.376 Y121.378 E17.58358
M204 S20000
;WIPE_START
G1 F14400
G1 X108.344 Y122.345 E17.1503
G1 X108.98 Y122.345 E16.9489
G1 X108.215 Y121.58 E16.60631
G1 X108.851 Y121.58 E16.40491
G1 X109.617 Y122.345 E16.06209
G1 X110.253 Y122.345 E15.86069
G1 X109.487 Y121.58 E15.51787
G1 X110.124 Y121.58 E15.31615
G1 X110.889 Y122.345 E14.97356
G1 X111.526 Y122.345 E14.77184
G1 X111.106 Y121.925 E14.58358
;WIPE_END
G92 E0
G1 X122.624 Y108.622 F18000
G1 E3 F4800
M204 S5000
G1 X121.656 Y107.655 E3.05837
G1 X121.02 Y107.655 E3.0855
G1 X121.785 Y108.42 E3.13165
G1 X121.149 Y108.42 E3.15878
G1 X120.383 Y107.655 E3.20496
G1 X119.747 Y107.655 E3.23209
G1 X120.512 Y108.42 E3.27824
G1 X119.876 Y108.42 E3.30537
G1 X119.11 Y107.655 E3.35155
G1 X118.474 Y107.655 E3.37868
G1 X119.24 Y108.42 E3.42486
G1 X118.603 Y108.42 E3.45203
G1 X117.838 Y107.655 E3.49818
G1 X117.201 Y107.655 E3.52535
G1 X117.967 Y108.42 E3.57153
G1 X117.33 Y108.42 E3.5987
G1 X116.565 Y107.655 E3.64485
G1 X115.928 Y107.655 E3.67202
G1 X116.694 Y108.42 E3.7182
G1 X116.057 Y108.42 E3.74537
G1 X115.292 Y107.655 E3.79152
G1 X114.655 Y107.655 E3.81869
G1 X115.421 Y108.42 E3.86487
G1 X114.785 Y108.42 E3.892
G1 X114.019 Y107.655 E3.93818
G1 X113.383 Y107.655 E3.96531
G1 X114.148 Y108.42 E4.01146
G1 X113.512 Y108.42 E4.03859
G1 X112.746 Y107.655 E4.08477
G1 X112.11 Y107.655 E4.1119
G1 X112.875 Y108.42 E4.15805
G1 X112.239 Y108.42 E4.18518
G1 X111.473 Y107.655 E4.23136
G1 X110.837 Y107.655 E4.25849
G1 X111.602 Y108.42 E4.30464
G1 X110.966 Y108.42 E4.33177
G1 X110.2 Y107.655 E4.37795
G1 X109.564 Y107.655 E4.40508
G1 X110.33 Y108.42 E4.45126
G1 X109.693 Y108.42 E4.47843
G1 X108.928 Y107.655 E4.52458
G1 X108.291 Y107.655 E4.55175
G1 X109.057 Y108.42 E4.59793
G1 X108.42 Y108.42 E4.6251
G1 X107.655 Y107.655 E4.67125
G1 X107.018 Y107.655 E4.69842
G1 X107.784 Y108.42 E4.7446
G1 X107.147 Y108.42 E4.77177
G1 X106.382 Y107.655 E4.81792
G1 X105.745 Y107.655 E4.84509
G1 X106.593 Y108.503 E4.89625
G1 X106.473 Y108.544 E4.90166
G1 X106.217 Y108.763 E4.91603
G1 X105.109 Y107.655 E4.98287
G1 X104.473 Y107.655 E5.01
G1 X105.972 Y109.154 E5.10043
G1 X105.92 Y109.463 E5.1138
G1 X105.92 Y109.739 E5.12557
G1 X103.836 Y107.655 E5.25129
G1 X103.2 Y107.655 E5.27842
G1 X105.92 Y110.375 E5.44251
G1 X105.92 Y111.012 E5.46968
G1 X102.563 Y107.655 E5.6722
G1 X101.927 Y107.655 E5.69933
G1 X105.92 Y111.648 E5.94022
G1 X105.92 Y112.285 E5.96739
G1 X101.29 Y107.655 E6.24671
G1 X100.654 Y107.655 E6.27384
G1 X105.92 Y112.921 E6.59153
G1 X105.92 Y113.558 E6.6187
G1 X100.017 Y107.655 E6.97482
G1 X99.381 Y107.655 E7.00195
G1 X105.92 Y114.194 E7.39644
G1 X105.92 Y114.83 E7.42357
G1 X98.745 Y107.655 E7.85642
G1 X98.108 Y107.655 E7.88359
G1 X105.92 Y115.467 E8.35487
G1 X105.92 Y116.103 E8.382
G1 X97.655 Y107.838 E8.88061
G1 X97.655 Y108.474 E8.90774
G1 X105.92 Y116.74 E9.40638
