; generated by PrusaSlicer 2.7.4+linux-x64-GTK3 on 2025-02-19 at 21:33:27 UTC


;
;
; 

; external perimeters extrusion width = 0.42mm
; perimeters extrusion width = 0.45mm
; infill extrusion width = 0.45mm
; solid infill extrusion width = 0.45mm
; top infill extrusion width = 0.42mm
; support material extrusion width = 0.42mm
; first layer extrusion width = 0.50mm

;TYPE:Custom
G90 ; use absolute coordinates
M83 ; extruder relative mode
M140 S60 ; set bed temp
M190 S60 ; wait for bed temp
M104 S200 ; set extruder temp
M109 S200 ; wait for extruder temp
G28                                        ; move X/Y/Z to min endstops
G1 Z0.28                                   ; lift nozzle a bit 
G92 E0 
G1 Y3 F2400                                    ; zero the extruded length 
G1 X180  E40 F500                       ; Extrude 25mm of filament in a 5cm line. 
G92 E0                                     ; zero the extruded length again 
G1 E-0.2 F3000                                ; Retract a little 
G1 X181 F4000                              ; Quickly wipe away from the filament line
M117
G21 ; set units to millimeters
G90 ; use absolute coordinates
M82 ; use absolute distances for extrusion
G92 E0
M107
;LAYER_CHANGE
;Z:0.24
;HEIGHT:0.24
G1 E-3 F4800
G1 Z.24 F18000
G1 X91.06 Y105.32
G1 E0 F4800
M204 S5000
;TYPE:Skirt/Brim
;WIDTH:0.5
G1 X91.542 Y104.997 E.02467
G1 X92.468 Y104.733 E.06561
G1 X99.733 Y104.733 E.37447
G1 X99.737 Y102.429 E.47242
G1 X100.011 Y101.515 E.51299
G1 X100.247 Y101.148 E.53154
G1 X101.132 Y100.26 E.58484
G1 X101.54 Y99.998 E.60545
G1 X102.264 Y99.756 E.6379
G1 X122.736 Y99.756 E1.50824
G1 X123.097 Y99.847 E1.52407
G1 X123.868 Y100.26 E1.56125
G1 X124.753 Y101.148 E1.61455
G1 X124.989 Y101.515 E1.6331
G1 X125.263 Y102.429 E1.67367
G1 X125.267 Y104.733 E1.77162
G1 X137.62 Y104.742 E2.29679
G1 X138.09 Y104.844 E2.31724
G1 X138.773 Y105.185 E2.34969
G1 X139.677 Y106.057 E2.40309
G1 X139.975 Y106.488 E2.42537
G1 X140.179 Y106.988 E2.44833
G1 X140.267 Y107.468 E2.46908
G1 X140.267 Y127.531 E3.32203
G1 X140.155 Y128.091 E3.34631
G1 X139.815 Y128.773 E3.37871
G1 X138.94 Y129.68 E3.43229
G1 X138.458 Y130.003 E3.45696
G1 X137.532 Y130.267 E3.4979
G1 X92.469 Y130.267 E5.41369
G1 X91.909 Y130.155 E5.43797
G1 X91.227 Y129.815 E5.47037
G1 X90.32 Y128.94 E5.52395
G1 X89.997 Y128.458 E5.54862
G1 X89.733 Y127.532 E5.58956
G1 X89.733 Y107.469 E6.44251
G1 X89.845 Y106.909 E6.46679
G1 X90.185 Y106.227 E6.49919
G1 X91.019 Y105.363 E6.55024
M204 S20000
G1 X91.019 Y105.363 F18000
G1 X91.34 Y105.675
M204 S5000
G1 F4800
G1 X91.365 Y105.649 E6.55177
G1 X91.732 Y105.404 E6.57053
G1 X92.49 Y105.182 E6.60411
G1 X100.182 Y105.182 E6.93112
G1 X100.182 Y102.49 E7.04557
G1 X100.403 Y101.735 E7.07901
G1 X100.584 Y101.444 E7.09358
G1 X101.399 Y100.622 E7.14279
G1 X101.731 Y100.404 E7.15968
G1 X102.344 Y100.198 E7.18717
G1 X122.656 Y100.198 E8.0507
G1 X123.269 Y100.404 E8.07819
G1 X123.601 Y100.622 E8.09508
G1 X124.416 Y101.444 E8.14429
G1 X124.597 Y101.735 E8.15886
G1 X124.818 Y102.49 E8.1923
G1 X124.818 Y105.182 E8.30675
G1 X137.551 Y105.186 E8.84807
G1 X137.939 Y105.267 E8.86492
G1 X138.518 Y105.555 E8.89241
G1 X139.348 Y106.363 E8.94166
G1 X139.571 Y106.684 E8.95828
G1 X139.818 Y107.49 E8.99412
G1 X139.818 Y127.509 E9.8452
G1 X139.732 Y127.94 E9.86388
G1 X139.445 Y128.518 E9.89132
G1 X138.635 Y129.351 E9.94072
G1 X138.268 Y129.596 E9.95948
G1 X137.51 Y129.818 E9.99306
G1 X92.491 Y129.818 E11.90698
G1 X92.06 Y129.732 E11.92566
G1 X91.482 Y129.445 E11.9531
G1 X90.649 Y128.635 E12.0025
G1 X90.404 Y128.268 E12.02126
G1 X90.182 Y127.51 E12.05484
G1 X90.182 Y107.491 E12.90592
G1 X90.268 Y107.06 E12.9246
G1 X90.555 Y106.482 E12.95204
G1 X91.298 Y105.718 E12.99735
M204 S20000
G1 X91.298 Y105.718 F18000
G1 X91.618 Y106.032
M204 S5000
G1 F4800
G1 X91.668 Y105.981 E13.00039
G1 X91.924 Y105.809 E13.0135
G1 X92.513 Y105.63 E13.03967
G1 X100.63 Y105.63 E13.38475
G1 X100.63 Y102.513 E13.51726
G1 X100.69 Y102.211 E13.53035
G1 X100.923 Y101.74 E13.55269
G1 X101.668 Y100.981 E13.5979
G1 X101.924 Y100.809 E13.61101
G1 X102.422 Y100.64 E13.63337
G1 X122.578 Y100.64 E14.49027
G1 X122.787 Y100.69 E14.49941
G1 X123.332 Y100.981 E14.52568
G1 X124.077 Y101.74 E14.57089
G1 X124.31 Y102.211 E14.59323
G1 X124.37 Y102.513 E14.60632
G1 X124.37 Y105.63 E14.73883
G1 X137.487 Y105.63 E15.29648
G1 X137.789 Y105.69 E15.30957
G1 X138.26 Y105.923 E15.33191
G1 X139.169 Y106.883 E15.38812
G1 X139.37 Y107.513 E15.41623
G1 X139.37 Y127.487 E16.26539
G1 X139.31 Y127.789 E16.27848
G1 X139.077 Y128.26 E16.30082
G1 X138.332 Y129.019 E16.34603
G1 X138.076 Y129.191 E16.35914
G1 X137.487 Y129.37 E16.38531
G1 X92.513 Y129.37 E18.29731
G1 X92.211 Y129.31 E18.3104
G1 X91.74 Y129.077 E18.33274
G1 X90.981 Y128.332 E18.37795
G1 X90.809 Y128.076 E18.39106
G1 X90.63 Y127.487 E18.41723
G1 X90.63 Y107.513 E19.26639
G1 X90.69 Y107.211 E19.27948
G1 X90.923 Y106.74 E19.30182
G1 X91.575 Y106.075 E19.34141
M204 S20000
G1 X91.575 Y106.075 F18000
G1 X91.893 Y106.39
M204 S5000
G1 F4800
G1 X91.97 Y106.313 E19.34604
G1 X92.535 Y106.079 E19.37204
G1 X101.079 Y106.079 E19.73528
G1 X101.113 Y102.363 E19.89327
G1 X101.287 Y102.002 E19.91031
G1 X101.97 Y101.313 E19.95155
G1 X102.494 Y101.083 E19.97588
G1 X122.506 Y101.083 E20.82666
G1 X123.03 Y101.313 E20.85099
G1 X123.713 Y102.002 E20.89223
G1 X123.887 Y102.363 E20.90927
G1 X123.921 Y106.079 E21.06726
G1 X137.465 Y106.079 E21.64306
G1 X137.998 Y106.287 E21.66738
G1 X138.766 Y107.081 E21.71434
G1 X138.921 Y107.535 E21.73474
G1 X138.921 Y127.465 E22.58203
G1 X138.713 Y127.998 E22.60635
G1 X138.03 Y128.687 E22.64759
G1 X137.465 Y128.921 E22.67359
G1 X92.535 Y128.921 E24.58372
G1 X92.002 Y128.713 E24.60804
G1 X91.313 Y128.03 E24.64928
G1 X91.079 Y127.465 E24.67528
G1 X91.079 Y107.535 E25.52257
G1 X91.287 Y107.002 E25.54689
G1 X91.851 Y106.433 E25.58095
M204 S20000
G1 X91.851 Y106.433 F18000
G1 X92.168 Y106.749
M204 S5000
G1 F4800
G1 X92.272 Y106.646 E25.58717
G1 X92.557 Y106.527 E25.6003
G1 X101.527 Y106.527 E25.98165
G1 X101.536 Y102.514 E26.15226
G1 X101.646 Y102.272 E26.16356
G1 X102.272 Y101.646 E26.2012
G1 X102.557 Y101.527 E26.21433
G1 X122.486 Y101.536 E27.06158
G1 X122.728 Y101.646 E27.07288
G1 X123.354 Y102.272 E27.11052
G1 X123.473 Y102.557 E27.12365
G1 X123.473 Y106.527 E27.29243
G1 X137.443 Y106.527 E27.88634
G1 X137.728 Y106.646 E27.89947
G1 X138.379 Y107.308 E27.93894
G1 X138.473 Y107.557 E27.95026
G1 X138.473 Y127.443 E28.79568
G1 X138.354 Y127.728 E28.80881
G1 X137.728 Y128.354 E28.84645
G1 X137.443 Y128.473 E28.85958
G1 X92.557 Y128.473 E30.76784
G1 X92.272 Y128.354 E30.78097
G1 X91.646 Y127.728 E30.81861
G1 X91.527 Y127.443 E30.83174
G1 X91.527 Y107.557 E31.67716
G1 X91.646 Y107.272 E31.69029
G1 X92.125 Y106.792 E31.71912
M204 S20000
G1 X92.125 Y106.792 F18000
G1 X92.459 Y107.099
M204 S5000
G1 F4800
G1 X92.542 Y107.01 E31.72429
G1 X101.976 Y106.976 E32.12537
G1 X101.976 Y102.624 E32.31039
G1 X102.624 Y101.976 E32.34935
G1 X122.376 Y101.976 E33.18908
G1 X123.024 Y102.624 E33.22804
G1 X123.024 Y106.976 E33.41306
G1 X137.376 Y106.976 E34.02321
G1 X137.99 Y107.542 E34.05871
G1 X138.024 Y127.376 E34.90192
G1 X137.458 Y127.99 E34.93742
G1 X92.624 Y128.024 E36.84347
G1 X92.01 Y127.458 E36.87897
G1 X91.976 Y107.624 E37.72218
G1 X92.418 Y107.144 E37.74992
M204 S20000
;WIPE_START
G1 F14400
G1 X92.459 Y107.099 E37.73064
G1 X92.542 Y107.01 E37.6921
G1 X101.833 Y106.976 E34.74992
;WIPE_END
G92 E0
G92 E0
G1 X141.836 Y112.249 F18000
G1 E3 F4800
M204 S5000
;TYPE:Support material
G1 X142.87 Y112.686 E3.04772
G1 X143.793 Y113.331 E3.09559
G1 X144.562 Y114.16 E3.14366
G1 X145.139 Y115.135 E3.19183
G1 X145.498 Y116.212 E3.24009
G1 X145.619 Y117.338 E3.28824
G1 X145.497 Y118.473 E3.33677
G1 X145.139 Y119.549 E3.38498
G1 X144.562 Y120.524 E3.43315
G1 X143.793 Y121.352 E3.48119
G1 X142.87 Y121.998 E3.52909
G1 X141.836 Y122.434 E3.5768
G1 X141.55 Y122.488 E3.58917
G1 X141.55 Y112.195 E4.02676
G1 X141.77 Y112.237 E4.03628
M204 S20000
G1 X141.77 Y112.237 F18000
G1 X144.9 Y119.557
M204 S5000
G1 F4800
G1 X144.9 Y115.693 E4.20055
G1 X144.77 Y115.303 E4.21803
G1 X144.401 Y114.681 E4.24878
G1 X144.401 Y120.003 E4.47504
G1 X143.903 Y120.64 E4.50941
G1 X143.903 Y114.043 E4.78987
G1 X143.405 Y113.552 E4.8196
G1 X143.405 Y121.131 E5.14181
G1 X142.906 Y121.48 E5.1677
G1 X142.906 Y113.203 E5.51958
G1 X142.408 Y112.929 E5.54374
G1 X142.408 Y121.974 E5.92827
M204 S20000
;WIPE_START
G1 F14400
G1 X142.408 Y112.929 E3.06402
G1 X142.784 Y113.136 E2.92827
;WIPE_END
G92 E0
G1 X112.63 Y92.253 F18000
G1 E3 F4800
M204 S5000
G1 X113.245 Y92.281 E3.02617
G1 X114.358 Y92.537 E3.07472
G1 X115.406 Y92.988 E3.12322
G1 X116.355 Y93.619 E3.17167
G1 X117.176 Y94.411 E3.22017
G1 X117.841 Y95.335 E3.26857
G1 X118.329 Y96.364 E3.31699
G1 X118.624 Y97.462 E3.36533
G1 X118.707 Y98.45 E3.40748
G1 X106.082 Y98.45 E3.94421
G1 X106.08 Y98.024 E3.96232
G1 X106.276 Y96.903 E4.0107
G1 X106.67 Y95.836 E4.05906
G1 X107.25 Y94.855 E4.10751
G1 X107.997 Y93.993 E4.156
G1 X108.886 Y93.28 E4.20445
G1 X109.89 Y92.737 E4.25298
G1 X110.974 Y92.383 E4.30146
G1 X112.106 Y92.229 E4.35003
G1 X112.562 Y92.25 E4.36944
M204 S20000
G1 X112.562 Y92.25 F18000
G1 X117.99 Y98.248
M204 S5000
G1 F4800
G1 X117.99 Y96.659 E4.43699
G1 X117.492 Y95.542 E4.48898
G1 X117.492 Y98.046 E4.59543
G1 X116.993 Y98.046 E4.61664
G1 X116.993 Y94.848 E4.7526
G1 X116.495 Y94.315 E4.78361
G1 X116.495 Y98.046 E4.94223
G1 X115.997 Y98.046 E4.9634
G1 X115.997 Y93.866 E5.14111
G1 X115.498 Y93.534 E5.16659
G1 X115.498 Y98.046 E5.35841
G1 X115 Y98.046 E5.37958
G1 X115 Y93.253 E5.58335
G1 X114.502 Y93.038 E5.60641
G1 X114.502 Y98.046 E5.81932
G1 X114.003 Y98.046 E5.84053
G1 X114.003 Y92.869 E6.06062
G1 X113.505 Y92.755 E6.08234
G1 X113.505 Y98.046 E6.30728
G1 X113.007 Y98.046 E6.32845
G1 X113.007 Y92.674 E6.55683
G1 X112.508 Y92.651 E6.57807
G1 X112.508 Y98.046 E6.80743
G1 X112.01 Y98.046 E6.8286
G1 X112.01 Y92.649 E7.05805
G1 X111.512 Y92.717 E7.07942
G1 X111.512 Y98.046 E7.30597
G1 X111.013 Y98.046 E7.32718
G1 X111.013 Y92.794 E7.55046
G1 X110.515 Y92.957 E7.57274
G1 X110.515 Y98.046 E7.78909
G1 X110.017 Y98.046 E7.81026
G1 X110.017 Y93.127 E8.01938
G1 X109.518 Y93.396 E8.04348
G1 X109.518 Y98.046 E8.24117
G1 X109.02 Y98.046 E8.26234
G1 X109.02 Y93.69 E8.44753
G1 X108.522 Y94.089 E8.47466
G1 X108.522 Y98.046 E8.64289
G1 X108.023 Y98.046 E8.6641
G1 X108.023 Y94.579 E8.81149
G1 X107.525 Y95.183 E8.84477
G1 X107.525 Y98.046 E8.96649
G1 X107.027 Y98.046 E8.98766
G1 X107.027 Y96.035 E9.07315
G1 X106.667 Y97.009 E9.1173
G1 X106.528 Y97.801 E9.15149
G1 X106.528 Y98.248 E9.17049
M204 S20000
;WIPE_START
G1 F14400
G1 X106.528 Y97.801 E9.02894
G1 X106.667 Y97.009 E8.77431
G1 X107.027 Y96.035 E8.44548
G1 X107.027 Y98.046 E7.80866
G1 X107.525 Y98.046 E7.65096
G1 X107.525 Y95.183 E6.74434
G1 X108.023 Y94.579 E6.49644
G1 X108.023 Y95.608 E6.17049
;WIPE_END
G92 E0
G1 X103.026 Y108.25 F18000
G1 E3 F4800
M204 S5000
;TYPE:External perimeter
;WIDTH:0.499999
G1 X103.185 Y108.184 E3.00732
G1 X103.25 Y108.026 E3.01458
G1 X103.25 Y103.25 E3.21762
G1 X121.75 Y103.25 E4.00412
G1 X121.75 Y108.026 E4.20716
G1 X121.815 Y108.184 E4.21442
G1 X121.974 Y108.25 E4.22174
G1 X136.75 Y108.25 E4.84992
G1 X136.75 Y117.5 E5.24317
G1 X136.75 Y126.75 E5.63642
G1 X93.25 Y126.75 E7.48576
G1 X93.25 Y108.25 E8.27226
G1 X102.966 Y108.25 E8.68532
M204 S20000
G1 X102.966 Y108.25 F18000
G1 X103.063 Y108.69
M204 S5000
;TYPE:Perimeter
G1 F4800
G1 X103.137 Y108.689 E8.68847
G1 X103.429 Y108.564 E8.70197
G1 X103.631 Y108.319 E8.71547
G1 X103.698 Y108.026 E8.72825
G1 X103.698 Y103.698 E8.91225
G1 X121.302 Y103.698 E9.66066
G1 X121.302 Y108.026 E9.84466
G1 X121.324 Y108.197 E9.85199
G1 X121.465 Y108.465 E9.86486
G1 X121.706 Y108.643 E9.8776
G1 X121.974 Y108.698 E9.88923
G1 X136.302 Y108.698 E10.49836
G1 X136.302 Y117.5 E10.87256
G1 X136.302 Y126.302 E11.24676
G1 X93.698 Y126.302 E13.058
G1 X93.698 Y108.698 E13.80641
G1 X102.5 Y108.698 E14.18061
G1 X103.003 Y108.691 E14.202
M204 S20000
;WIPE_START
G1 F14400
G1 X103.063 Y108.69 E14.183
G1 X103.137 Y108.689 E14.15956
G1 X103.429 Y108.564 E14.05898
G1 X103.631 Y108.319 E13.95843
G1 X103.698 Y108.026 E13.86325
G1 X103.698 Y103.698 E12.49272
G1 X107.774 Y103.698 E11.202
;WIPE_END
G92 E0
G1 X136.122 Y109.794 F18000
G1 E3 F4800
M204 S5000
;TYPE:Solid infill
;WIDTH:0.504494
G1 X135.408 Y109.08 E3.04336
G1 X134.767 Y109.079 E3.07088
G1 X135.92 Y110.233 E3.14093
G1 X135.92 Y110.873 E3.16841
G1 X134.126 Y109.079 E3.27735
G1 X133.485 Y109.079 E3.30487
G1 X135.92 Y111.514 E3.45274
G1 X135.92 Y112.155 E3.48026
G1 X132.845 Y109.079 E3.66702
G1 X132.204 Y109.079 E3.69454
G1 X135.92 Y112.795 E3.9202
G1 X135.92 Y113.436 E3.94772
G1 X131.563 Y109.079 E4.2123
G1 X130.922 Y109.079 E4.23982
G1 X135.92 Y114.077 E4.54333
G1 X135.92 Y114.717 E4.57081
G1 X130.281 Y109.078 E4.91324
G1 X129.641 Y109.078 E4.94072
G1 X135.92 Y115.358 E5.32205
G1 X135.92 Y115.998 E5.34953
G1 X129 Y109.078 E5.76975
G1 X128.359 Y109.078 E5.79727
G1 X135.92 Y116.639 E6.25642
G1 X135.92 Y117.28 E6.28394
G1 X127.718 Y109.078 E6.78201
G1 X127.078 Y109.078 E6.80949
G1 X135.92 Y117.92 E7.34643
G1 X135.92 Y118.561 E7.37395
G1 X126.437 Y109.078 E7.94981
G1 X125.796 Y109.077 E7.97733
G1 X135.92 Y119.202 E8.59215
G1 X135.92 Y119.842 E8.61963
G1 X125.155 Y109.077 E9.27334
G1 X124.515 Y109.077 E9.30082
G1 X135.92 Y120.483 E9.99343
G1 X135.92 Y121.123 E10.02091
G1 X123.874 Y109.077 E10.75241
G1 X123.233 Y109.077 E10.77993
G1 X135.92 Y121.764 E11.55036
G1 X135.92 Y122.405 E11.57788
G1 X122.39 Y108.875 E12.3995
M204 S20000
;WIPE_START
G1 F14400
G1 X129.089 Y115.574 E9.3995
;WIPE_END
G92 E0
G1 X121.122 Y104.403 F18000
G1 E3 F4800
M204 S5000
G1 X120.798 Y104.08 E3.01964
G1 X120.158 Y104.08 E3.04712
G1 X120.92 Y104.842 E3.09339
G1 X120.92 Y105.483 E3.12091
G1 X119.517 Y104.08 E3.20611
G1 X118.877 Y104.08 E3.23359
G1 X120.92 Y106.123 E3.35765
G1 X120.92 Y106.764 E3.38517
G1 X118.236 Y104.08 E3.54816
G1 X117.595 Y104.08 E3.57568
G1 X121.122 Y107.607 E3.78986
M204 S20000
;WIPE_START
G1 F14400
G1 X117.595 Y104.08 E2.21035
G1 X118.236 Y104.08 E2.00737
G1 X120.92 Y106.764 E.80538
G1 X120.92 Y106.715 E.78986
;WIPE_END
G92 E0
G1 X116.753 Y103.878 F18000
G1 E3 F4800
M204 S5000
G1 X120.921 Y108.046 E3.2531
G1 X120.93 Y108.175 E3.25865
G1 X120.987 Y108.397 E3.26849
G1 X121.065 Y108.56 E3.27625
G1 X121.176 Y108.715 E3.28444
G1 X121.34 Y108.868 E3.29407
G1 X121.481 Y108.958 E3.30125
G1 X121.712 Y109.047 E3.31188
G1 X121.952 Y109.077 E3.32227
G1 X135.92 Y123.045 E4.17049
G1 X135.92 Y123.686 E4.19801
G1 X116.314 Y104.08 E5.3886
G1 X115.673 Y104.08 E5.41612
G1 X135.92 Y124.327 E6.64563
G1 X135.92 Y124.967 E6.67311
G1 X115.033 Y104.08 E7.94149
G1 X114.392 Y104.08 E7.96901
G1 X135.92 Y125.608 E9.27631
G1 X135.92 Y125.92 E9.28971
G1 X135.592 Y125.92 E9.30379
G1 X113.752 Y104.08 E10.63004
G1 X113.111 Y104.08 E10.65756
G1 X134.951 Y125.92 E11.98381
G1 X134.311 Y125.92 E12.01129
G1 X112.47 Y104.08 E13.33757
G1 X111.83 Y104.08 E13.36505
G1 X133.67 Y125.92 E14.6913
G1 X133.03 Y125.92 E14.71878
G1 X111.189 Y104.08 E16.04506
G1 X110.548 Y104.08 E16.07258
G1 X132.389 Y125.92 E17.39886
G1 X131.748 Y125.92 E17.42638
G1 X109.908 Y104.08 E18.75263
G1 X109.267 Y104.08 E18.78015
G1 X131.108 Y125.92 E20.10643
G1 X130.467 Y125.92 E20.13395
G1 X108.627 Y104.08 E21.4602
G1 X107.986 Y104.08 E21.48772
G1 X129.826 Y125.92 E22.81397
G1 X129.186 Y125.92 E22.84145
G1 X107.345 Y104.08 E24.16773
G1 X106.705 Y104.08 E24.19521
G1 X128.545 Y125.92 E25.52146
G1 X127.905 Y125.92 E25.54894
G1 X106.064 Y104.08 E26.87522
G1 X105.423 Y104.08 E26.90274
G1 X127.264 Y125.92 E28.22902
G1 X126.623 Y125.92 E28.25654
G1 X104.783 Y104.08 E29.58279
G1 X104.142 Y104.08 E29.61031
G1 X125.983 Y125.92 E30.93659
G1 X125.342 Y125.92 E30.96411
G1 X104.078 Y104.656 E32.25538
G1 X104.077 Y105.296 E32.28286
G1 X124.701 Y125.92 E33.53527
G1 X124.061 Y125.92 E33.56275
G1 X104.076 Y105.935 E34.77635
G1 X104.074 Y106.574 E34.80379
G1 X123.42 Y125.92 E35.97859
G1 X122.78 Y125.92 E36.00607
G1 X104.073 Y107.214 E37.14204
G1 X104.072 Y107.853 E37.16948
G1 X122.139 Y125.92 E38.26661
