; generated by PrusaSlicer 2.7.4+linux-x64-GTK3 on 2025-02-19 at 21:34:00 UTC


;
;
; 

; external perimeters extrusion width = 0.42mm
; perimeters extrusion width = 0.45mm
; infill extrusion width = 0.45mm
; solid infill extrusion width = 0.45mm
; top infill extrusion width = 0.42mm
; support material extrusion width = 0.42mm
; first layer extrusion width = 0.50mm

;TYPE:Custom
G90 ; use absolute coordinates
M83 ; extruder relative mode
M140 S60 ; set bed temp
M190 S60 ; wait for bed temp
M104 S200 ; set extruder temp
M109 S200 ; wait for extruder temp
G28                                        ; move X/Y/Z to min endstops
G1 Z0.28                                   ; lift nozzle a bit 
G92 E0 
G1 Y3 F2400                                    ; zero the extruded length 
G1 X180  E40 F500                       ; Extrude 25mm of filament in a 5cm line. 
G92 E0                                     ; zero the extruded length again 
G1 E-0.2 F3000                                ; Retract a little 
G1 X181 F4000                              ; Quickly wipe away from the filament line
M117
G21 ; set units to millimeters
G90 ; use absolute coordinates
M82 ; use absolute distances for extrusion
G92 E0
M107
;LAYER_CHANGE
;Z:0.24
;HEIGHT:0.24
G1 E-3 F4800
G1 Z.24 F18000
G1 X94.636 Y103.894
G1 E0 F4800
M204 S5000
;TYPE:Skirt/Brim
;WIDTH:0.5
G1 X95.078 Y103.592 E.02276
G1 X95.529 Y103.406 E.0435
G1 X96.044 Y103.308 E.06579
G1 X134.005 Y103.313 E1.67965
G1 X134.521 Y103.422 E1.70207
G1 X135.198 Y103.76 E1.73424
G1 X136.105 Y104.635 E1.78782
G1 X136.428 Y105.117 E1.81249
G1 X136.692 Y106.043 E1.85343
G1 X136.692 Y123.956 E2.61497
G1 X136.58 Y124.516 E2.63925
G1 X136.24 Y125.198 E2.67165
G1 X135.364 Y126.106 E2.72529
G1 X134.922 Y126.408 E2.74805
G1 X134.471 Y126.594 E2.76879
G1 X133.956 Y126.692 E2.79108
G1 X96.044 Y126.692 E4.40285
G1 X95.484 Y126.58 E4.42713
G1 X94.802 Y126.24 E4.45953
G1 X93.894 Y125.364 E4.51317
G1 X93.592 Y124.922 E4.53593
G1 X93.406 Y124.471 E4.55667
G1 X93.308 Y123.956 E4.57896
G1 X93.308 Y106.044 E5.34046
G1 X93.42 Y105.484 E5.36474
G1 X93.76 Y104.802 E5.39714
G1 X94.594 Y103.937 E5.44822
M204 S20000
G1 X94.594 Y103.937 F18000
G1 X94.915 Y104.25
M204 S5000
G1 F4800
G1 X94.94 Y104.224 E5.44975
G1 X95.307 Y103.979 E5.46851
G1 X96.065 Y103.757 E5.50209
G1 X133.981 Y103.761 E7.11403
G1 X134.691 Y103.978 E7.14559
G1 X134.943 Y104.13 E7.1581
G1 X135.776 Y104.94 E7.2075
G1 X136.021 Y105.307 E7.22626
G1 X136.243 Y106.065 E7.25984
G1 X136.243 Y123.934 E8.01951
G1 X136.022 Y124.691 E8.05304
G1 X135.87 Y124.943 E8.06555
G1 X135.06 Y125.776 E8.11495
G1 X134.693 Y126.021 E8.13371
G1 X133.935 Y126.243 E8.16729
G1 X96.066 Y126.243 E9.77723
G1 X95.309 Y126.022 E9.81076
G1 X95.057 Y125.87 E9.82327
G1 X94.224 Y125.06 E9.87267
G1 X93.979 Y124.693 E9.89143
G1 X93.757 Y123.935 E9.92501
G1 X93.757 Y106.066 E10.68468
G1 X93.843 Y105.635 E10.70336
G1 X94.13 Y105.057 E10.7308
G1 X94.874 Y104.293 E10.77614
M204 S20000
G1 X94.874 Y104.293 F18000
G1 X95.193 Y104.607
M204 S5000
G1 F4800
G1 X95.243 Y104.556 E10.77918
G1 X95.499 Y104.384 E10.79229
G1 X96.088 Y104.205 E10.81846
G1 X133.956 Y104.21 E12.42836
G1 X134.685 Y104.498 E12.46168
G1 X135.444 Y105.243 E12.50689
G1 X135.616 Y105.499 E12.52
G1 X135.795 Y106.088 E12.54617
G1 X135.795 Y123.912 E13.30393
G1 X135.735 Y124.214 E13.31702
G1 X135.502 Y124.685 E13.33936
G1 X134.757 Y125.444 E13.38457
G1 X134.501 Y125.616 E13.39768
G1 X133.912 Y125.795 E13.42385
G1 X96.088 Y125.795 E15.03188
G1 X95.786 Y125.735 E15.04497
G1 X95.315 Y125.502 E15.06731
G1 X94.556 Y124.757 E15.11252
G1 X94.384 Y124.501 E15.12563
G1 X94.205 Y123.912 E15.1518
G1 X94.205 Y106.088 E15.90956
G1 X94.265 Y105.786 E15.92265
G1 X94.498 Y105.315 E15.94499
G1 X95.151 Y104.649 E15.98464
M204 S20000
G1 X95.151 Y104.649 F18000
G1 X95.469 Y104.965
M204 S5000
G1 F4800
G1 X95.545 Y104.888 E15.98924
G1 X96.11 Y104.654 E16.01524
G1 X133.931 Y104.658 E17.62314
G1 X134.311 Y104.791 E17.64026
G1 X135.112 Y105.545 E17.68703
G1 X135.346 Y106.11 E17.71303
G1 X135.346 Y123.89 E18.46892
G1 X135.209 Y124.311 E18.48774
G1 X134.455 Y125.112 E18.53451
G1 X133.89 Y125.346 E18.56051
G1 X96.11 Y125.346 E20.16667
G1 X95.689 Y125.209 E20.18549
G1 X94.888 Y124.455 E20.23226
G1 X94.654 Y123.89 E20.25826
G1 X94.654 Y106.11 E21.01415
G1 X94.862 Y105.577 E21.03847
G1 X95.427 Y105.007 E21.07259
M204 S20000
G1 X95.427 Y105.007 F18000
G1 X95.745 Y105.332
M204 S5000
G1 F4800
G1 X95.883 Y105.196 E21.08083
G1 X96.132 Y105.102 E21.09215
G1 X133.911 Y105.111 E22.69827
G1 X134.153 Y105.221 E22.70957
G1 X134.779 Y105.847 E22.74721
G1 X134.898 Y106.132 E22.76034
G1 X134.898 Y123.868 E23.51436
G1 X134.779 Y124.153 E23.52749
G1 X134.117 Y124.804 E23.56696
G1 X133.868 Y124.898 E23.57828
G1 X96.132 Y124.898 E25.18257
G1 X95.847 Y124.779 E25.1957
G1 X95.196 Y124.117 E25.23517
G1 X95.102 Y123.868 E25.24649
G1 X95.102 Y106.132 E26.00051
G1 X95.221 Y105.847 E26.01364
G1 X95.702 Y105.374 E26.04232
M204 S20000
G1 X95.702 Y105.374 F18000
G1 X96.032 Y105.677
M204 S5000
G1 F4800
G1 X96.117 Y105.585 E26.04765
G1 X133.801 Y105.551 E27.64973
G1 X134.449 Y106.199 E27.68869
G1 X134.449 Y123.801 E28.43701
G1 X133.883 Y124.415 E28.47251
G1 X96.199 Y124.449 E30.07459
G1 X95.585 Y123.883 E30.11009
G1 X95.551 Y106.199 E30.8619
G1 X95.991 Y105.721 E30.88952
M204 S20000
;WIPE_START
G1 F14400
G1 X96.032 Y105.677 E30.87048
G1 X96.117 Y105.585 E30.83082
G1 X105.405 Y105.577 E27.88952
;WIPE_END
G92 E0
G92 E0
G1 X133.121 Y123.121 F18000
G1 E3 F4800
M204 S5000
;TYPE:External perimeter
;WIDTH:0.60712
G1 X132.786 Y123.142 E3.01768
;WIDTH:0.566436
G1 X132.451 Y123.162 E3.03406
;WIDTH:0.525752
G1 X97.549 Y123.162 E4.60307
;WIDTH:0.566435
G1 X97.214 Y123.142 E4.61945
;WIDTH:0.607118
G1 X96.879 Y123.121 E4.63713
G1 X96.858 Y122.786 E4.65481
;WIDTH:0.566435
G1 X96.838 Y122.451 E4.67119
;WIDTH:0.525752
G1 X96.838 Y107.549 E5.3411
;WIDTH:0.566435
G1 X96.858 Y107.214 E5.35748
;WIDTH:0.607118
G1 X96.879 Y106.879 E5.37516
G1 X97.214 Y106.858 E5.39284
;WIDTH:0.566435
G1 X97.549 Y106.838 E5.40922
;WIDTH:0.525752
G1 X132.451 Y106.838 E6.97823
;WIDTH:0.566436
G1 X132.786 Y106.858 E6.99461
;WIDTH:0.60712
G1 X133.121 Y106.879 E7.01229
G1 X133.121 Y107.156 E7.02688
G1 X133.142 Y107.353 E7.03731
;WIDTH:0.566436
G1 X133.162 Y107.549 E7.04693
;WIDTH:0.525751
G1 X133.162 Y122.451 E7.71684
;WIDTH:0.529344
G1 X133.16 Y122.533 E7.72056
;WIDTH:0.568232
G1 X133.141 Y122.827 E7.73499
;WIDTH:0.60712
G1 X133.125 Y123.062 E7.7474
M204 S20000
;WIPE_START
G1 F14400
G1 X133.121 Y123.121 E7.72867
G1 X132.786 Y123.142 E7.62238
G1 X132.451 Y123.162 E7.51611
G1 X123.708 Y123.162 E4.7474
;WIPE_END
G92 E0
G1 X97.312 Y122.277 F18000
G1 E3 F4800
M204 S5000
;WIDTH:0.525752
G1 X97.312 Y107.549 E3.66209
;WIDTH:0.566435
G1 X97.332 Y107.451 E3.66697
;WIDTH:0.607118
G1 X97.353 Y107.353 E3.67225
G1 X97.451 Y107.332 E3.67753
;WIDTH:0.566435
G1 X97.549 Y107.312 E3.68241
;WIDTH:0.525752
G1 X132.451 Y107.312 E5.25142
;WIDTH:0.566436
G1 X132.549 Y107.332 E5.2563
;WIDTH:0.60712
G1 X132.647 Y107.353 E5.26158
G1 X132.668 Y107.451 E5.26686
;WIDTH:0.566436
G1 X132.688 Y107.549 E5.27174
;WIDTH:0.525751
G1 X132.688 Y122.451 E5.94165
;WIDTH:0.566436
G1 X132.668 Y122.549 E5.94653
;WIDTH:0.60712
G1 X132.647 Y122.647 E5.95181
G1 X132.549 Y122.668 E5.95709
;WIDTH:0.566436
G1 X132.451 Y122.688 E5.96197
;WIDTH:0.525752
G1 X97.549 Y122.688 E7.53098
;WIDTH:0.566435
G1 X97.451 Y122.668 E7.53586
;WIDTH:0.607118
G1 X97.353 Y122.647 E7.54114
G1 X97.332 Y122.549 E7.54642
;WIDTH:0.566435
G1 X97.312 Y122.451 E7.5513
;WIDTH:0.525752
G1 X97.312 Y122.337 E7.55642
M204 S20000
;LAYER_CHANGE
;Z:0.44
;HEIGHT:0.2
; BEFORE_LAYER_CHANGE 1 @ 0.44mm
G1 Z.44 F18000
; AFTER_LAYER_CHANGE 1 @ 0.44mm
G1 E4.55642 F4800
G92 E0
G1 X97.312 Y122.337 Z.44 F18000
G1 X133.715 Y123.715
G1 E3 F4800
G92 E0
M204 S5000
;WIDTH:0.419999
G1 F4859
G1 X96.285 Y123.715 E1.11491
G1 X96.285 Y106.285 E1.63409
G1 X133.715 Y106.285 E2.749
G1 X133.715 Y107.243 E2.77754
G1 X133.715 Y123.655 E3.2664
M204 S20000
G1 X133.323 Y123.323 F18000
M204 S10000
;TYPE:Perimeter
;WIDTH:0.449999
G1 F4859
G1 X132.337 Y123.296 E3.29812
;WIDTH:0.498595
G1 X132.24 Y123.279 E3.30166
;WIDTH:0.54719
G1 X132.142 Y123.261 E3.30563
;WIDTH:0.595786
G1 X132.044 Y123.243 E3.30998
;WIDTH:0.644381
G1 X131.946 Y123.226 E3.31471
G1 X98.054 Y123.226 E4.92496
G1 X97.851 Y123.25 E4.93467
;WIDTH:0.595786
G1 X97.648 Y123.274 E4.9436
;WIDTH:0.54719
G1 X97.446 Y123.299 E4.95171
;WIDTH:0.498595
G1 X97.243 Y123.323 E4.95907
;WIDTH:0.449999
G1 X96.677 Y123.323 E4.97727
G1 X96.704 Y122.337 E5.00899
;WIDTH:0.498595
G1 X96.721 Y122.24 E5.01253
;WIDTH:0.54719
G1 X96.739 Y122.142 E5.0165
;WIDTH:0.595786
G1 X96.757 Y122.044 E5.02085
;WIDTH:0.644381
G1 X96.774 Y121.946 E5.02558
G1 X96.774 Y108.054 E5.6856
G1 X96.75 Y107.851 E5.69531
;WIDTH:0.595786
G1 X96.726 Y107.648 E5.70424
;WIDTH:0.54719
G1 X96.701 Y107.446 E5.71235
;WIDTH:0.498595
G1 X96.677 Y107.243 E5.71971
;WIDTH:0.449999
G1 X96.677 Y106.677 E5.73791
G1 X97.663 Y106.704 E5.76963
;WIDTH:0.498595
G1 X97.76 Y106.721 E5.77317
;WIDTH:0.54719
G1 X97.858 Y106.739 E5.77714
;WIDTH:0.595786
G1 X97.956 Y106.757 E5.78149
;WIDTH:0.644381
G1 X98.054 Y106.774 E5.78622
G1 X131.946 Y106.774 E7.39647
G1 X132.149 Y106.75 E7.40618
;WIDTH:0.595786
G1 X132.352 Y106.726 E7.41511
;WIDTH:0.54719
G1 X132.554 Y106.701 E7.42322
;WIDTH:0.498595
G1 X132.757 Y106.677 E7.43058
;WIDTH:0.449999
G1 X133.323 Y106.677 E7.44878
G1 X133.323 Y107.243 E7.46698
;WIDTH:0.498595
G1 X133.299 Y107.446 E7.47434
;WIDTH:0.54719
G1 X133.274 Y107.648 E7.48245
;WIDTH:0.595786
G1 X133.25 Y107.851 E7.49138
;WIDTH:0.644381
G1 X133.226 Y108.054 E7.50109
G1 X133.226 Y121.946 E8.16111
G1 X133.25 Y122.044 E8.1659
;WIDTH:0.595786
G1 X133.274 Y122.142 E8.17031
;WIDTH:0.54719
G1 X133.299 Y122.24 E8.17434
;WIDTH:0.498595
G1 X133.323 Y122.337 E8.17794
;WIDTH:0.449999
G1 X133.323 Y123.263 E8.20772
M204 S20000
;WIPE_START
G1 F14400
G1 X133.323 Y123.323 E8.18872
G1 X132.337 Y123.296 E7.87637
G1 X132.24 Y123.279 E7.84519
G1 X132.142 Y123.261 E7.81364
G1 X132.044 Y123.243 E7.78209
G1 X131.946 Y123.226 E7.75059
G1 X123.916 Y123.226 E5.20772
;WIPE_END
G92 E0
G1 X97.88 Y122.02 F18000
G1 E3 F4800
M204 S5000
;TYPE:External perimeter
;WIDTH:0.419999
G1 F4859
G1 X97.865 Y121.946 E3.00225
G1 X97.865 Y108.054 E3.41604
G1 X97.92 Y107.92 E3.42035
G1 X98.054 Y107.865 E3.42466
G1 X131.946 Y107.865 E4.43419
G1 X132.08 Y107.92 E4.4385
G1 X132.135 Y108.054 E4.44281
G1 X132.135 Y121.946 E4.8566
G1 X132.08 Y122.08 E4.86091
G1 X131.946 Y122.135 E4.86522
G1 X98.054 Y122.135 E5.87475
G1 X97.92 Y122.08 E5.87906
G1 X97.914 Y122.07 E5.87941
M204 S20000
G1 X97.914 Y122.07 F18000
G1 X97.376 Y121.702
M204 S10000
;TYPE:Perimeter
;WIDTH:0.644381
G1 F4859
G1 X97.376 Y108.054 E6.52784
G1 X97.443 Y107.951 E6.53368
;WIDTH:0.595786
G1 X97.509 Y107.848 E6.53902
;WIDTH:0.54719
G1 X97.576 Y107.746 E6.54388
;WIDTH:0.498595
G1 X97.643 Y107.643 E6.5483
G1 X97.746 Y107.576 E6.55272
;WIDTH:0.54719
G1 X97.848 Y107.509 E6.55758
;WIDTH:0.595786
G1 X97.951 Y107.443 E6.56292
;WIDTH:0.644381
G1 X98.054 Y107.376 E6.56876
G1 X131.946 Y107.376 E8.17901
G1 X132.049 Y107.443 E8.18485
;WIDTH:0.595786
G1 X132.152 Y107.509 E8.19019
;WIDTH:0.54719
G1 X132.254 Y107.576 E8.19505
;WIDTH:0.498595
G1 X132.357 Y107.643 E8.19947
G1 X132.424 Y107.746 E8.20389
;WIDTH:0.54719
G1 X132.491 Y107.848 E8.20875
;WIDTH:0.595786
G1 X132.557 Y107.951 E8.21409
;WIDTH:0.644381
G1 X132.624 Y108.054 E8.21993
G1 X132.624 Y121.946 E8.87995
G1 X132.6 Y122.002 E8.88284
;WIDTH:0.604529
G1 X132.575 Y122.057 E8.88552
;WIDTH:0.564676
G1 X132.536 Y122.093 E8.88771
;WIDTH:0.526451
G1 X132.496 Y122.129 E8.88977
;WIDTH:0.488225
G1 X132.457 Y122.164 E8.89161
;WIDTH:0.449999
G1 X132.357 Y122.357 E8.8986
;WIDTH:0.498595
G1 X132.254 Y122.424 E8.90302
;WIDTH:0.54719
G1 X132.152 Y122.491 E8.90788
;WIDTH:0.595786
G1 X132.049 Y122.557 E8.91322
;WIDTH:0.644381
G1 X131.946 Y122.624 E8.91906
G1 X98.054 Y122.624 E10.52931
G1 X97.951 Y122.557 E10.53515
;WIDTH:0.595786
G1 X97.848 Y122.491 E10.54049
;WIDTH:0.54719
G1 X97.746 Y122.424 E10.54535
;WIDTH:0.498595
G1 X97.643 Y122.357 E10.54977
;WIDTH:0.449999
G1 X97.52 Y122.174 E10.55686
;WIDTH:0.498595
G1 X97.484 Y122.117 E10.55929
;WIDTH:0.54719
G1 X97.448 Y122.06 E10.56198
;WIDTH:0.595786
G1 X97.412 Y122.003 E10.56492
;WIDTH:0.644381
G1 X97.376 Y121.946 E10.56812
G1 X97.376 Y121.762 E10.57686
M204 S20000
G1 X97.376 Y121.762 F18000
G1 X97.117 Y122.254
M204 S10000
;TYPE:Solid infill
;WIDTH:0.457483
G1 F4859
G1 X97.06 Y122.406 E10.58218
G1 X97.036 Y122.973 E10.60076
G1 X97.35 Y122.943 E10.61109
G1 X97.721 Y122.854 E10.62358
G1 X97.372 Y122.575 E10.63821
G1 X97.244 Y122.413 E10.64497
M204 S20000
;WIPE_START
G1 F14400
G1 X97.372 Y122.575 E10.57959
G1 X97.721 Y122.854 E10.4381
G1 X97.35 Y122.943 E10.31728
G1 X97.036 Y122.973 E10.21739
G1 X97.06 Y122.406 E10.03768
G1 X97.117 Y122.254 E9.98627
;WIPE_END
G1 E7.64497 F4800
G92 E0
G1 X97.587 Y107.06 F18000
G1 E3 F4800
M204 S10000
;WIDTH:0.457482
G1 F4859
G1 X97.027 Y107.036 E3.01836
G1 X97.057 Y107.35 E3.02869
G1 X97.146 Y107.721 E3.04118
G1 X97.425 Y107.372 E3.05581
G1 X97.675 Y107.189 E3.06596
G1 X97.718 Y107.137 E3.06817
M204 S20000
;WIPE_START
G1 F14400
G1 X97.675 Y107.189 E3.0468
G1 X97.425 Y107.372 E2.94869
G1 X97.146 Y107.721 E2.8072
G1 X97.057 Y107.35 E2.68638
G1 X97.027 Y107.036 E2.58649
G1 X97.587 Y107.06 E2.40899
;WIPE_END
G1 E.06817 F4800
G92 E0
G1 X132.652 Y107.057 F18000
G1 E3 F4800
M204 S10000
;WIDTH:0.459892
G1 F4859
G1 X132.282 Y107.146 E3.01253
G1 X132.623 Y107.416 E3.02686
G1 X132.854 Y107.718 E3.03938
G1 X132.972 Y107.225 E3.05608
G1 X132.972 Y107.028 E3.06257
G1 X132.854 Y107.039 E3.06647
M204 S20000
;WIPE_START
G1 F14400
G1 X132.972 Y107.028 E3.02894
G1 X132.972 Y107.225 E2.96656
G1 X132.854 Y107.718 E2.80603
G1 X132.623 Y107.416 E2.68563
G1 X132.282 Y107.146 E2.5479
G1 X132.652 Y107.057 E2.42739
;WIPE_END
G1 E.06647 F4800
G92 E0
G1 X132.899 Y122.236 F18000
G1 E3 F4800
M204 S10000
;WIDTH:0.461781
G1 F4859
G1 X132.738 Y122.367 E3.00687
G1 X132.571 Y122.633 E3.01726
G1 X132.257 Y122.882 E3.03052
G1 X132.406 Y122.938 E3.03579
G1 X132.971 Y122.962 E3.0545
G1 X132.971 Y122.424 E3.0723
M204 S20000
M106 S252.45
;LAYER_CHANGE
;Z:0.64
;HEIGHT:0.2
; BEFORE_LAYER_CHANGE 2 @ 0.64mm
G1 Z.64 F18000
; AFTER_LAYER_CHANGE 2 @ 0.64mm
G1 E.0723 F4800
G92 E0
G1 X132.971 Y122.424 Z.64 F18000
G1 X133.715 Y123.715
G1 E3 F4800
G92 E0
M204 S5000
;TYPE:External perimeter
;WIDTH:0.419999
G1 F4755
G1 X96.285 Y123.715 E1.11491
G1 X96.285 Y106.285 E1.63409
G1 X133.715 Y106.285 E2.749
G1 X133.715 Y107.243 E2.77754
G1 X133.715 Y123.655 E3.2664
M204 S20000
G1 X133.323 Y123.323 F18000
M204 S10000
;TYPE:Perimeter
;WIDTH:0.449999
G1 F4755
G1 X132.337 Y123.296 E3.29812
;WIDTH:0.498595
G1 X132.24 Y123.279 E3.30166
;WIDTH:0.54719
G1 X132.142 Y123.261 E3.30563
;WIDTH:0.595786
G1 X132.044 Y123.243 E3.30998
;WIDTH:0.644381
G1 X131.946 Y123.226 E3.31471
G1 X98.054 Y123.226 E4.92496
G1 X97.851 Y123.25 E4.93467
;WIDTH:0.595786
G1 X97.648 Y123.274 E4.9436
;WIDTH:0.54719
G1 X97.446 Y123.299 E4.95171
;WIDTH:0.498595
G1 X97.243 Y123.323 E4.95907
;WIDTH:0.449999
G1 X96.677 Y123.323 E4.97727
G1 X96.704 Y122.337 E5.00899
;WIDTH:0.498595
G1 X96.721 Y122.24 E5.01253
;WIDTH:0.54719
G1 X96.739 Y122.142 E5.0165
;WIDTH:0.595786
G1 X96.757 Y122.044 E5.02085
;WIDTH:0.644381
G1 X96.774 Y121.946 E5.02558
G1 X96.774 Y108.054 E5.6856
G1 X96.75 Y107.851 E5.69531
;WIDTH:0.595786
G1 X96.726 Y107.648 E5.70424
;WIDTH:0.54719
G1 X96.701 Y107.446 E5.71235
;WIDTH:0.498595
G1 X96.677 Y107.243 E5.71971
;WIDTH:0.449999
G1 X96.677 Y106.677 E5.73791
G1 X97.663 Y106.704 E5.76963
;WIDTH:0.498595
G1 X97.76 Y106.721 E5.77317
;WIDTH:0.54719
G1 X97.858 Y106.739 E5.77714
;WIDTH:0.595786
G1 X97.956 Y106.757 E5.78149
;WIDTH:0.644381
G1 X98.054 Y106.774 E5.78622
G1 X131.946 Y106.774 E7.39647
G1 X132.149 Y106.75 E7.40618
;WIDTH:0.595786
G1 X132.352 Y106.726 E7.41511
;WIDTH:0.54719
G1 X132.554 Y106.701 E7.42322
;WIDTH:0.498595
G1 X132.757 Y106.677 E7.43058
;WIDTH:0.449999
G1 X133.323 Y106.677 E7.44878
G1 X133.323 Y107.243 E7.46698
