; generated by PrusaSlicer 2.7.4+linux-x64-GTK3 on 2025-02-19 at 21:33:47 UTC


;
;
; 

; external perimeters extrusion width = 0.42mm
; perimeters extrusion width = 0.45mm
; infill extrusion width = 0.45mm
; solid infill extrusion width = 0.45mm
; top infill extrusion width = 0.42mm
; support material extrusion width = 0.42mm
; first layer extrusion width = 0.50mm

;TYPE:Custom
G90 ; use absolute coordinates
M83 ; extruder relative mode
M140 S60 ; set bed temp
M190 S60 ; wait for bed temp
M104 S200 ; set extruder temp
M109 S200 ; wait for extruder temp
G28                                        ; move X/Y/Z to min endstops
G1 Z0.28                                   ; lift nozzle a bit 
G92 E0 
G1 Y3 F2400                                    ; zero the extruded length 
G1 X180  E40 F500                       ; Extrude 25mm of filament in a 5cm line. 
G92 E0                                     ; zero the extruded length again 
G1 E-0.2 F3000                                ; Retract a little 
G1 X181 F4000                              ; Quickly wipe away from the filament line
M117
G21 ; set units to millimeters
G90 ; use absolute coordinates
M82 ; use absolute distances for extrusion
G92 E0
M107
;LAYER_CHANGE
;Z:0.24
;HEIGHT:0.24
G1 E-3 F4800
G1 Z.24 F18000
G1 X95.71 Y104.97
G1 E0 F4800
M204 S5000
;TYPE:Skirt/Brim
;WIDTH:0.5
G1 X96.192 Y104.647 E.02467
G1 X97.118 Y104.383 E.06561
G1 X132.93 Y104.388 E1.5881
G1 X133.446 Y104.497 E1.61052
G1 X134.123 Y104.835 E1.64269
G1 X135.03 Y105.71 E1.69627
G1 X135.353 Y106.192 E1.72094
G1 X135.617 Y107.12 E1.76196
G1 X135.594 Y113.236 E2.02197
G1 X135.338 Y113.987 E2.0557
G1 X135.1 Y114.357 E2.0744
G1 X134.464 Y114.999 E2.11282
G1 X135.033 Y115.563 E2.14688
G1 X135.311 Y115.963 E2.16759
G1 X135.609 Y116.888 E2.20891
G1 X135.612 Y122.93 E2.46578
G1 X135.503 Y123.446 E2.4882
G1 X135.165 Y124.123 E2.52037
G1 X134.29 Y125.03 E2.57395
G1 X133.808 Y125.353 E2.59862
G1 X132.882 Y125.617 E2.63956
G1 X97.119 Y125.617 E4.15997
G1 X96.559 Y125.505 E4.18425
G1 X95.877 Y125.165 E4.21665
G1 X94.97 Y124.29 E4.27023
G1 X94.647 Y123.808 E4.2949
G1 X94.383 Y122.882 E4.33584
G1 X94.383 Y107.119 E5.00598
G1 X94.495 Y106.559 E5.03026
G1 X94.835 Y105.877 E5.06266
G1 X95.669 Y105.013 E5.11371
M204 S20000
G1 X95.669 Y105.013 F18000
G1 X95.99 Y105.325
M204 S5000
G1 F4800
G1 X96.015 Y105.299 E5.11524
G1 X96.382 Y105.054 E5.134
G1 X97.14 Y104.832 E5.16758
G1 X132.906 Y104.836 E6.68812
G1 X133.616 Y105.053 E6.71968
G1 X133.868 Y105.205 E6.73219
G1 X134.701 Y106.015 E6.78159
G1 X134.946 Y106.382 E6.80035
G1 X135.168 Y107.141 E6.83397
G1 X135.152 Y113.156 E7.08969
G1 X134.947 Y113.766 E7.11705
G1 X134.763 Y114.06 E7.1318
G1 X133.831 Y115.002 E7.18814
G1 X134.702 Y115.866 E7.2403
G1 X134.927 Y116.195 E7.25725
G1 X135.165 Y116.952 E7.29099
G1 X135.164 Y122.906 E7.54412
G1 X134.947 Y123.616 E7.57568
G1 X134.795 Y123.868 E7.58819
G1 X133.985 Y124.701 E7.63759
G1 X133.618 Y124.946 E7.65635
G1 X132.86 Y125.168 E7.68993
G1 X97.141 Y125.168 E9.20847
G1 X96.384 Y124.947 E9.242
G1 X96.132 Y124.795 E9.25451
G1 X95.299 Y123.985 E9.30391
G1 X95.054 Y123.618 E9.32267
G1 X94.832 Y122.86 E9.35625
G1 X94.832 Y107.141 E10.02452
G1 X94.918 Y106.71 E10.0432
G1 X95.205 Y106.132 E10.07064
G1 X95.948 Y105.368 E10.11595
M204 S20000
G1 X95.948 Y105.368 F18000
G1 X96.268 Y105.682
M204 S5000
G1 F4800
G1 X96.318 Y105.631 E10.11899
G1 X96.574 Y105.459 E10.1321
G1 X97.163 Y105.28 E10.15827
G1 X132.881 Y105.285 E11.67677
G1 X133.61 Y105.573 E11.71009
G1 X134.369 Y106.318 E11.7553
G1 X134.541 Y106.574 E11.76841
G1 X134.72 Y107.163 E11.79458
G1 X134.66 Y113.287 E12.05495
G1 X134.399 Y113.796 E12.07927
G1 X133.654 Y114.543 E12.12412
G1 X132.682 Y115.005 E12.16987
G1 X133.645 Y115.45 E12.21497
G1 X134.369 Y116.168 E12.25832
G1 X134.54 Y116.423 E12.27137
G1 X134.72 Y117.012 E12.29755
G1 X134.715 Y122.882 E12.5471
G1 X134.427 Y123.61 E12.58038
G1 X133.682 Y124.369 E12.62559
G1 X133.426 Y124.541 E12.6387
G1 X132.837 Y124.72 E12.66487
G1 X97.163 Y124.72 E14.1815
G1 X96.861 Y124.66 E14.19459
G1 X96.39 Y124.427 E14.21693
G1 X95.631 Y123.682 E14.26214
G1 X95.459 Y123.426 E14.27525
G1 X95.28 Y122.837 E14.30142
G1 X95.28 Y107.163 E14.96778
G1 X95.34 Y106.861 E14.98087
G1 X95.573 Y106.39 E15.00321
G1 X96.225 Y105.725 E15.0428
M204 S20000
G1 X96.225 Y105.725 F18000
G1 X96.543 Y106.04
M204 S5000
G1 F4800
G1 X96.62 Y105.963 E15.04743
G1 X97.185 Y105.729 E15.07343
G1 X132.856 Y105.733 E16.58993
G1 X133.236 Y105.866 E16.60705
G1 X134.037 Y106.62 E16.65382
G1 X134.271 Y107.185 E16.67982
G1 X134.267 Y113.006 E16.92729
G1 X134.063 Y113.498 E16.94993
G1 X133.269 Y114.266 E16.99689
G1 X132.815 Y114.421 E17.01729
G1 X122.365 Y114.388 E17.46156
G1 X122.002 Y114.213 E17.47869
G1 X121.234 Y113.419 E17.52565
G1 X121.079 Y112.965 E17.54605
G1 X121.079 Y111.421 E17.61169
G1 X108.921 Y111.421 E18.12857
G1 X108.921 Y118.579 E18.43288
G1 X121.079 Y118.579 E18.94976
G1 X121.079 Y117.035 E19.0154
G1 X121.215 Y116.616 E19.03413
G1 X121.97 Y115.813 E19.08099
G1 X122.401 Y115.602 E19.10139
G1 X132.949 Y115.602 E19.54982
G1 X133.348 Y115.787 E19.56852
G1 X134.037 Y116.47 E19.60976
G1 X134.271 Y117.035 E19.63576
G1 X134.267 Y122.856 E19.88323
G1 X134.134 Y123.236 E19.90035
G1 X133.38 Y124.037 E19.94712
G1 X132.815 Y124.271 E19.97312
G1 X97.185 Y124.271 E21.48788
G1 X96.764 Y124.134 E21.5067
G1 X95.963 Y123.38 E21.55347
G1 X95.729 Y122.815 E21.57947
G1 X95.729 Y107.185 E22.24396
G1 X95.937 Y106.652 E22.26828
G1 X96.501 Y106.083 E22.30234
M204 S20000
G1 X96.501 Y106.083 F18000
G1 X96.82 Y106.407
M204 S5000
G1 F4800
G1 X96.958 Y106.271 E22.31058
G1 X97.207 Y106.177 E22.3219
G1 X132.836 Y106.186 E23.83661
G1 X133.078 Y106.296 E23.84791
G1 X133.704 Y106.922 E23.88555
G1 X133.823 Y107.207 E23.89868
G1 X133.823 Y112.943 E24.14254
G1 X133.704 Y113.228 E24.15567
G1 X133.078 Y113.854 E24.19331
G1 X132.793 Y113.973 E24.20644
G1 X122.514 Y113.964 E24.64344
G1 X122.272 Y113.854 E24.65474
G1 X121.646 Y113.228 E24.69238
G1 X121.536 Y112.986 E24.70368
G1 X121.527 Y110.973 E24.78926
G1 X108.473 Y110.973 E25.34423
G1 X108.473 Y119.027 E25.68663
G1 X121.527 Y119.027 E26.2416
G1 X121.536 Y117.014 E26.32718
G1 X121.646 Y116.772 E26.33848
G1 X122.272 Y116.146 E26.37612
G1 X122.514 Y116.036 E26.38742
G1 X132.793 Y116.027 E26.82442
G1 X133.078 Y116.146 E26.83755
G1 X133.704 Y116.772 E26.87519
G1 X133.823 Y117.057 E26.88832
G1 X133.823 Y122.793 E27.13218
G1 X133.704 Y123.078 E27.14531
G1 X133.042 Y123.729 E27.18478
G1 X132.793 Y123.823 E27.1961
G1 X97.207 Y123.823 E28.70899
G1 X96.922 Y123.704 E28.72212
G1 X96.271 Y123.042 E28.76159
G1 X96.177 Y122.793 E28.77291
G1 X96.177 Y107.207 E29.43553
G1 X96.296 Y106.922 E29.44866
G1 X96.777 Y106.449 E29.47734
M204 S20000
G1 X96.777 Y106.449 F18000
G1 X97.106 Y106.753
M204 S5000
G1 F4800
G1 X97.192 Y106.66 E29.48273
G1 X132.726 Y106.626 E30.99341
G1 X133.374 Y107.274 E31.03237
G1 X133.374 Y112.876 E31.27053
G1 X132.726 Y113.524 E31.30949
G1 X122.624 Y113.524 E31.73896
G1 X121.976 Y112.876 E31.77792
G1 X121.976 Y110.524 E31.87791
G1 X108.024 Y110.524 E32.47106
G1 X108.024 Y119.476 E32.85164
G1 X121.976 Y119.476 E33.44479
G1 X121.976 Y117.124 E33.54478
G1 X122.624 Y116.476 E33.58374
G1 X132.726 Y116.476 E34.01321
G1 X133.374 Y117.124 E34.05217
G1 X133.374 Y122.726 E34.29033
G1 X132.808 Y123.34 E34.32583
G1 X97.274 Y123.374 E35.83651
G1 X96.66 Y122.808 E35.87201
G1 X96.626 Y107.274 E36.53242
G1 X97.065 Y106.797 E36.55998
M204 S20000
;WIPE_START
G1 F14400
G1 X97.106 Y106.753 E36.54094
G1 X97.192 Y106.66 E36.50083
G1 X106.479 Y106.651 E33.55998
;WIPE_END
G92 E0
G1 X109.37 Y111.87 F18000
G1 E3 F4800
M204 S5000
G1 X120.629 Y111.87 E3.47866
G1 X120.634 Y113.028 E3.52789
G1 X120.853 Y113.655 E3.55613
G1 X121.705 Y114.55 E3.60866
G1 X122.666 Y115.004 E3.65385
G1 X121.67 Y115.479 E3.70076
G1 X120.829 Y116.388 E3.75341
G1 X120.634 Y116.972 E3.77959
G1 X120.629 Y118.13 E3.82882
G1 X109.37 Y118.13 E4.30748
G1 X109.37 Y111.93 E4.57106
M204 S20000
G1 X109.37 Y111.93 F18000
G1 X109.818 Y112.318
M204 S5000
G1 F4800
G1 X120.181 Y112.318 E5.01163
G1 X120.191 Y113.098 E5.04479
G1 X120.452 Y113.859 E5.07899
G1 X121.518 Y114.996 E5.14525
G1 X120.648 Y115.867 E5.19759
G1 X120.425 Y116.191 E5.21431
G1 X120.191 Y116.903 E5.24617
G1 X120.181 Y117.682 E5.27929
G1 X109.818 Y117.682 E5.71986
G1 X109.818 Y112.378 E5.94535
M204 S20000
G1 X109.818 Y112.378 F18000
G1 X110.267 Y112.767
M204 S5000
G1 F4800
G1 X119.733 Y112.767 E6.34778
G1 X119.838 Y113.568 E6.38212
G1 X120.052 Y114.062 E6.40501
G1 X120.323 Y114.443 E6.42489
G1 X120.882 Y114.998 E6.45838
G1 X120.316 Y115.564 E6.49241
G1 X120.022 Y115.994 E6.51456
G1 X119.835 Y116.44 E6.53512
G1 X119.733 Y117.233 E6.56911
G1 X110.267 Y117.233 E6.97154
G1 X110.267 Y112.827 E7.15885
M204 S20000
;WIPE_START
G1 F14400
G1 X110.267 Y112.767 E7.13985
G1 X119.681 Y112.767 E4.15885
;WIPE_END
G92 E0
G92 E0
G1 X106.75 Y120.526 F18000
G1 E3 F4800
M204 S5000
;TYPE:External perimeter
;WIDTH:0.499999
G1 X106.795 Y120.66 E3.00601
G1 X106.974 Y120.75 E3.01453
G1 X123.026 Y120.75 E3.69696
G1 X123.205 Y120.66 E3.70548
G1 X123.25 Y120.526 E3.71149
G1 X123.25 Y117.75 E3.82951
G1 X132.1 Y117.75 E4.20575
G1 X132.1 Y119.925 E4.29822
G1 X132.1 Y122.1 E4.39069
G1 X97.9 Y122.1 E5.84465
G1 X97.9 Y107.9 E6.44834
G1 X132.1 Y107.9 E7.9023
G1 X132.1 Y112.25 E8.08723
G1 X123.25 Y112.25 E8.46347
G1 X123.25 Y109.474 E8.58149
G1 X123.205 Y109.34 E8.5875
G1 X123.026 Y109.25 E8.59602
G1 X106.974 Y109.25 E9.27845
G1 X106.795 Y109.34 E9.28697
G1 X106.75 Y109.474 E9.29298
G1 X106.75 Y120.466 E9.76029
M204 S20000
G1 X106.75 Y120.466 F18000
G1 X106.339 Y120.64
M204 S5000
;TYPE:Perimeter
G1 F4800
G1 X106.436 Y120.929 E9.77325
;WIDTH:0.502257
G1 X106.974 Y121.2 E9.79899
G1 X123.026 Y121.2 E10.48485
;WIDTH:0.509071
G1 X123.143 Y121.193 E10.48993
G1 X123.564 Y120.929 E10.51148
;WIDTH:0.499999
G1 X123.698 Y120.526 E10.52954
G1 X123.698 Y118.198 E10.62851
G1 X131.652 Y118.198 E10.96666
G1 X131.652 Y119.925 E11.04008
G1 X131.652 Y121.652 E11.1135
G1 X123.925 Y121.652 E11.442
;WIDTH:0.502257
G1 X106.075 Y121.652 E12.20469
;WIDTH:0.499999
G1 X98.348 Y121.652 E12.53319
G1 X98.348 Y108.348 E13.09879
G1 X106.075 Y108.348 E13.42729
;WIDTH:0.502257
G1 X123.925 Y108.348 E14.18998
;WIDTH:0.499999
G1 X131.652 Y108.348 E14.51848
G1 X131.652 Y111.802 E14.66532
G1 X123.698 Y111.802 E15.00347
G1 X123.698 Y109.474 E15.10244
G1 X123.564 Y109.071 E15.1205
;WIDTH:0.502257
G1 X123.026 Y108.8 E15.14624
G1 X106.974 Y108.8 E15.8321
;WIDTH:0.509071
G1 X106.857 Y108.807 E15.83718
G1 X106.436 Y109.071 E15.85873
;WIDTH:0.499999
G1 X106.302 Y109.474 E15.87679
G1 X106.302 Y120.526 E16.34665
G1 X106.321 Y120.583 E16.3492
M204 S20000
;WIPE_START
G1 F14400
G1 X106.339 Y120.64 E16.33027
G1 X106.436 Y120.929 E16.23374
G1 X106.974 Y121.2 E16.04298
G1 X115.481 Y121.2 E13.3492
;WIPE_END
G92 E0
G1 X106.221 Y109.184 F18000
G1 E3 F4800
M204 S5000
;TYPE:Solid infill
;WIDTH:0.501056
G1 X105.775 Y108.738 E3.02688
G1 X105.139 Y108.737 E3.05398
G1 X105.92 Y109.519 E3.10108
G1 X105.92 Y110.154 E3.12814
G1 X104.502 Y108.736 E3.2136
G1 X103.866 Y108.736 E3.2407
G1 X105.92 Y110.79 E3.36448
G1 X105.92 Y111.426 E3.39158
G1 X103.229 Y108.735 E3.55375
G1 X102.593 Y108.734 E3.58085
G1 X105.92 Y112.062 E3.78138
G1 X105.92 Y112.698 E3.80848
G1 X101.956 Y108.733 E4.0474
G1 X101.32 Y108.733 E4.0745
G1 X105.92 Y113.333 E4.35172
G1 X105.92 Y113.969 E4.37882
G1 X100.683 Y108.732 E4.69443
G1 X100.047 Y108.731 E4.72153
G1 X105.92 Y114.605 E5.0755
G1 X105.92 Y115.241 E5.1026
G1 X99.41 Y108.731 E5.49492
G1 X98.774 Y108.73 E5.52202
G1 X105.92 Y115.876 E5.95267
G1 X105.92 Y116.512 E5.97977
G1 X98.73 Y109.322 E6.41307
G1 X98.73 Y109.957 E6.44013
G1 X105.92 Y117.148 E6.87346
G1 X105.92 Y117.784 E6.90056
G1 X98.73 Y110.593 E7.33389
G1 X98.73 Y111.229 E7.36099
G1 X105.92 Y118.419 E7.79429
G1 X105.92 Y119.055 E7.82139
G1 X98.73 Y111.865 E8.25469
G1 X98.73 Y112.5 E8.28175
G1 X105.92 Y119.691 E8.71508
G1 X105.92 Y120.327 E8.74218
G1 X98.73 Y113.136 E9.17551
G1 X98.73 Y113.772 E9.20261
G1 X106.226 Y121.268 E9.65436
G1 X105.591 Y121.268 E9.68142
G1 X98.73 Y114.408 E10.09487
G1 X98.73 Y115.043 E10.12193
G1 X104.955 Y121.269 E10.49711
G1 X104.319 Y121.269 E10.52421
G1 X98.73 Y115.679 E10.86106
G1 X98.73 Y116.315 E10.88816
G1 X103.684 Y121.269 E11.18671
G1 X103.048 Y121.269 E11.21381
G1 X98.73 Y116.951 E11.47403
G1 X98.73 Y117.586 E11.50109
G1 X102.413 Y121.269 E11.72305
G1 X101.777 Y121.269 E11.75015
G1 X98.73 Y118.222 E11.93378
G1 X98.73 Y118.858 E11.96088
G1 X101.141 Y121.27 E12.10621
G1 X100.506 Y121.27 E12.13327
G1 X98.73 Y119.494 E12.2403
G1 X98.73 Y120.129 E12.26736
G1 X99.87 Y121.27 E12.33609
G1 X99.235 Y121.27 E12.36315
G1 X98.528 Y120.563 E12.40576
M204 S20000
;WIPE_START
G1 F14400
G1 X99.235 Y121.27 E12.08914
G1 X99.87 Y121.27 E11.88806
G1 X98.73 Y120.129 E11.3773
G1 X98.73 Y119.494 E11.17622
G1 X100.506 Y121.27 E10.38087
G1 X101.141 Y121.27 E10.17979
G1 X99.413 Y119.541 E9.40576
;WIPE_END
G92 E0
G1 X130.535 Y118.378 F18000
G1 E3 F4800
M204 S5000
;WIDTH:0.514457
G1 X131.27 Y119.113 E3.04562
G1 X131.27 Y119.768 E3.07436
G1 X130.082 Y118.58 E3.14809
G1 X129.427 Y118.58 E3.17683
G1 X131.27 Y120.423 E3.29121
G1 X131.27 Y121.077 E3.31991
G1 X128.773 Y118.58 E3.47488
G1 X128.118 Y118.58 E3.50362
G1 X130.808 Y121.27 E3.67056
G1 X130.152 Y121.269 E3.69935
G1 X127.463 Y118.58 E3.86623
G1 X126.808 Y118.58 E3.89497
G1 X129.497 Y121.268 E4.06182
G1 X128.841 Y121.267 E4.09061
G1 X126.154 Y118.58 E4.25737
G1 X125.499 Y118.58 E4.28611
G1 X128.186 Y121.267 E4.45287
G1 X127.531 Y121.266 E4.48161
G1 X124.844 Y118.58 E4.64834
G1 X124.19 Y118.58 E4.67704
G1 X126.875 Y121.265 E4.84367
G1 X126.22 Y121.265 E4.87241
G1 X124.08 Y119.125 E5.00522
G1 X124.08 Y119.779 E5.03392
G1 X125.564 Y121.264 E5.12605
G1 X124.909 Y121.263 E5.15479
G1 X124.08 Y120.434 E5.20624
G1 X124.08 Y120.551 E5.21137
G1 X123.945 Y120.954 E5.23002
G1 X124.455 Y121.464 E5.26167
M204 S20000
;WIPE_START
G1 F14400
G1 X123.945 Y120.954 E5.03327
G1 X124.08 Y120.551 E4.89868
G1 X124.08 Y120.434 E4.86163
G1 X124.909 Y121.263 E4.49038
G1 X125.564 Y121.264 E4.28296
G1 X124.08 Y119.779 E3.61815
G1 X124.08 Y119.125 E3.41105
G1 X126.22 Y121.265 E2.45268
G1 X126.823 Y121.265 E2.26167
;WIPE_END
G92 E0
G1 X130.507 Y108.528 F18000
G1 E3 F4800
M204 S5000
;WIDTH:0.527837
G1 X131.27 Y109.292 E3.04875
G1 X131.27 Y109.965 E3.07914
G1 X130.035 Y108.73 E3.158
G1 X129.362 Y108.73 E3.18839
G1 X131.27 Y110.639 E3.31026
G1 X131.27 Y111.313 E3.34069
G1 X128.688 Y108.73 E3.5056
G1 X128.015 Y108.731 E3.53599
G1 X130.704 Y111.42 E3.7077
G1 X130.031 Y111.42 E3.73809
G1 X127.341 Y108.731 E3.90983
G1 X126.668 Y108.731 E3.94022
G1 X129.357 Y111.42 E4.11193
G1 X128.683 Y111.42 E4.14236
G1 X125.994 Y108.731 E4.31407
G1 X125.321 Y108.731 E4.34446
G1 X128.01 Y111.42 E4.51617
G1 X127.336 Y111.42 E4.5466
G1 X124.647 Y108.732 E4.71827
G1 X123.974 Y108.732 E4.74866
G1 X126.663 Y111.42 E4.92033
G1 X125.989 Y111.42 E4.95076
G1 X124.08 Y109.511 E5.07266
G1 X124.08 Y110.185 E5.10309
G1 X125.315 Y111.42 E5.18195
G1 X124.642 Y111.42 E5.21234
G1 X123.878 Y110.657 E5.26109
M204 S20000
;LAYER_CHANGE
;Z:0.44
;HEIGHT:0.2
; BEFORE_LAYER_CHANGE 1 @ 0.44mm
G1 Z.44 F18000
; AFTER_LAYER_CHANGE 1 @ 0.44mm
G1 E2.26109 F4800
G92 E0
G1 X123.878 Y110.657 Z.44 F18000
G1 X107.328 Y120.135
G1 E3 F4800
G92 E0
M204 S5000
;TYPE:External perimeter
;WIDTH:0.419999
G1 F7200
G1 X107.479 Y120.21 E.00502
G1 X122.521 Y120.21 E.45307
G1 X122.672 Y120.135 E.45809
G1 X122.71 Y120.021 E.46167
G1 X122.71 Y117.21 E.5454
G1 X132.64 Y117.21 E.84118
G1 X132.64 Y119.925 E.92205
G1 X132.64 Y122.64 E1.00292
G1 X97.36 Y122.64 E2.05379
G1 X97.36 Y107.36 E2.50893
G1 X132.64 Y107.36 E3.5598
G1 X132.64 Y112.79 E3.72154
G1 X122.71 Y112.79 E4.01732
G1 X122.71 Y110.075 E4.09819
G1 X122.672 Y109.865 E4.10455
G1 X122.521 Y109.79 E4.10957
G1 X107.479 Y109.79 E4.55762
G1 X107.328 Y109.865 E4.56264
G1 X107.29 Y109.979 E4.56622
G1 X107.29 Y120.021 E4.86534
G1 X107.309 Y120.078 E4.86713
M204 S20000
G1 X107.309 Y120.078 F18000
G1 X107.046 Y120.397
M204 S10000
;TYPE:Perimeter
;WIDTH:0.449999
