; generated by PrusaSlicer 2.7.3+linux-x64-GTK3 on 2025-02-19 at 10:42:07 UTC


;
;
; 

; external perimeters extrusion width = 0.42mm
; perimeters extrusion width = 0.45mm
; infill extrusion width = 0.45mm
; solid infill extrusion width = 0.45mm
; top infill extrusion width = 0.42mm
; support material extrusion width = 0.42mm
; first layer extrusion width = 0.50mm

;TYPE:Custom
G90 ; use absolute coordinates
M83 ; extruder relative mode
M140 S60 ; set bed temp
M190 S60 ; wait for bed temp
M104 S210 ; set extruder temp
M109 S210 ; wait for extruder temp
G28                                        ; move X/Y/Z to min endstops
G1 Z0.28                                   ; lift nozzle a bit 
G92 E0 
G1 Y3 F2400                                    ; zero the extruded length 
G1 X180  E40 F500                       ; Extrude 25mm of filament in a 5cm line. 
G92 E0                                     ; zero the extruded length again 
G1 E-0.2 F3000                                ; Retract a little 
G1 X181 F4000                              ; Quickly wipe away from the filament line
M117
G21 ; set units to millimeters
G90 ; use absolute coordinates
M82 ; use absolute distances for extrusion
G92 E0
M107
;LAYER_CHANGE
;Z:0.25
;HEIGHT:0.25
G1 E-5 F4800
G1 Z.25 F18000
G92 E0
G1 X128.675 Y118.675
G1 E5 F4800
G92 E0
M204 S5000
;TYPE:External perimeter
;WIDTH:0.499999
G1 X91.325 Y118.675 E1.61147
G1 X91.325 Y101.325 E2.36004
G1 X128.675 Y101.325 E3.97151
G1 X128.675 Y102.242 E4.01107
G1 X128.675 Y118.615 E4.71748
M204 S20000
G1 X128.229 Y118.229 F18000
M204 S5000
;TYPE:Perimeter
G1 F4800
G1 X127.758 Y118.229 E4.7378
;WIDTH:0.540238
G1 X127.355 Y118.209 E4.75678
;WIDTH:0.580476
G1 X126.952 Y118.188 E4.77733
G1 X93.048 Y118.188 E6.50386
G1 X92.41 Y118.209 E6.53637
;WIDTH:0.540238
G1 X91.771 Y118.229 E6.56644
;WIDTH:0.499999
G1 X91.771 Y117.758 E6.58676
;WIDTH:0.540238
G1 X91.791 Y117.355 E6.60574
;WIDTH:0.580476
G1 X91.812 Y116.952 E6.62629
G1 X91.812 Y103.048 E7.33434
G1 X91.791 Y102.41 E7.36685
;WIDTH:0.540238
G1 X91.771 Y101.771 E7.39692
;WIDTH:0.499999
G1 X92.242 Y101.771 E7.41724
;WIDTH:0.540238
G1 X92.645 Y101.791 E7.43622
;WIDTH:0.580476
G1 X93.048 Y101.812 E7.45677
G1 X126.952 Y101.812 E9.1833
G1 X127.59 Y101.791 E9.21581
;WIDTH:0.540238
G1 X128.229 Y101.771 E9.24588
;WIDTH:0.499999
G1 X128.229 Y102.242 E9.2662
;WIDTH:0.540237
G1 X128.209 Y102.645 E9.28518
;WIDTH:0.580475
G1 X128.188 Y103.048 E9.30573
G1 X128.188 Y116.952 E10.01378
;WIDTH:0.587848
G1 X128.207 Y117.675 E10.05113
;WIDTH:0.543924
G1 X128.226 Y118.169 E10.07456
M204 S20000
;WIPE_START
G1 F14400
G1 X128.229 Y118.229 E10.05554
G1 X127.758 Y118.229 E9.90639
G1 X127.355 Y118.209 E9.77862
G1 X126.952 Y118.188 E9.65083
G1 X112.501 Y118.188 E5.07456
;WIPE_END
G92 E0
G1 X127.175 Y116.952 F18000
G1 E5 F4800
M204 S5000
;TYPE:External perimeter
;WIDTH:0.499999
G1 X127.11 Y117.11 E5.00737
G1 X126.952 Y117.175 E5.01474
G1 X93.048 Y117.175 E6.47753
G1 X92.89 Y117.11 E6.4849
G1 X92.825 Y116.952 E6.49227
G1 X92.825 Y103.048 E7.09216
G1 X92.89 Y102.89 E7.09953
G1 X93.048 Y102.825 E7.1069
G1 X126.952 Y102.825 E8.56969
G1 X127.11 Y102.89 E8.57706
G1 X127.175 Y103.048 E8.58443
G1 X127.175 Y116.892 E9.18173
M204 S20000
G1 X127.175 Y116.892 F18000
G1 X127.604 Y117.152
M204 S5000
;TYPE:Perimeter
;WIDTH:0.587848
G1 F4800
G1 X127.54 Y117.25 E9.18777
;WIDTH:0.543924
G1 X127.425 Y117.425 E9.19769
G1 X127.25 Y117.54 E9.20761
;WIDTH:0.58785
G1 X127.075 Y117.655 E9.21842
G1 X126.952 Y117.662 E9.22478
;WIDTH:0.580476
G1 X93.048 Y117.662 E10.95131
G1 X92.811 Y117.543 E10.96481
;WIDTH:0.540238
G1 X92.575 Y117.425 E10.97722
;WIDTH:0.543925
G1 X92.46 Y117.25 E10.98714
;WIDTH:0.58785
G1 X92.345 Y117.075 E10.99795
G1 X92.338 Y116.952 E11.00431
;WIDTH:0.580476
G1 X92.338 Y103.048 E11.71236
G1 X92.457 Y102.811 E11.72586
;WIDTH:0.540238
G1 X92.575 Y102.575 E11.73827
;WIDTH:0.543925
G1 X92.75 Y102.46 E11.74819
;WIDTH:0.58785
G1 X92.925 Y102.345 E11.759
G1 X93.048 Y102.338 E11.76536
;WIDTH:0.580476
G1 X126.952 Y102.338 E13.49189
G1 X127.189 Y102.457 E13.50539
;WIDTH:0.540238
G1 X127.425 Y102.575 E13.5178
G1 X127.543 Y102.811 E13.53021
;WIDTH:0.580475
G1 X127.662 Y103.048 E13.54371
G1 X127.662 Y116.952 E14.25176
;WIDTH:0.587848
G1 X127.655 Y117.075 E14.25812
G1 X127.637 Y117.101 E14.25975
M204 S20000
;WIPE_START
G1 F14400
G1 X127.604 Y117.152 E14.24051
G1 X127.54 Y117.25 E14.20345
G1 X127.425 Y117.425 E14.13714
G1 X127.25 Y117.54 E14.07083
G1 X127.075 Y117.655 E14.00452
G1 X126.952 Y117.662 E13.96551
G1 X112.092 Y117.662 E9.25975
;WIPE_END
G92 E0
G1 X92.273 Y102.188 F18000
G1 E5 F4800
M204 S5000
;WIDTH:0.548542
G1 X92.211 Y102.188 E5.00297
G1 X92.18 Y102.242 E5.00595
G1 X92.211 Y102.296 E5.00893
G1 X92.273 Y102.296 E5.0119
G1 X92.304 Y102.242 E5.01488
M204 S20000
;WIPE_START
G1 F14400
G1 X92.273 Y102.296 E4.99516
G1 X92.211 Y102.296 E4.97553
G1 X92.18 Y102.242 E4.95581
G1 X92.211 Y102.188 E4.93609
G1 X92.273 Y102.188 E4.91646
;WIPE_END
G1 E.01488 F4800
G92 E0
G1 X92.273 Y117.704 F18000
G1 E5 F4800
M204 S5000
G1 X92.211 Y117.704 E5.00297
G1 X92.18 Y117.758 E5.00595
G1 X92.211 Y117.812 E5.00893
G1 X92.273 Y117.812 E5.0119
G1 X92.304 Y117.758 E5.01488
M204 S20000
;WIPE_START
G1 F14400
G1 X92.273 Y117.812 E4.99516
G1 X92.211 Y117.812 E4.97553
G1 X92.18 Y117.758 E4.95581
G1 X92.211 Y117.704 E4.93609
G1 X92.273 Y117.704 E4.91646
;WIPE_END
G1 E.01488 F4800
G92 E0
G1 X127.789 Y117.704 F18000
G1 E5 F4800
M204 S5000
;WIDTH:0.548544
G1 X127.727 Y117.704 E5.00297
G1 X127.696 Y117.758 E5.00595
G1 X127.727 Y117.812 E5.00893
G1 X127.789 Y117.812 E5.0119
G1 X127.82 Y117.758 E5.01488
M204 S20000
;WIPE_START
G1 F14400
G1 X127.789 Y117.812 E4.99516
G1 X127.727 Y117.812 E4.97553
G1 X127.696 Y117.758 E4.95581
G1 X127.727 Y117.704 E4.93609
G1 X127.789 Y117.704 E4.91646
;WIPE_END
G1 E.01488 F4800
G92 E0
G1 X127.789 Y102.188 F18000
G1 E5 F4800
M204 S5000
G1 X127.727 Y102.188 E5.00297
G1 X127.696 Y102.242 E5.00595
G1 X127.727 Y102.296 E5.00893
G1 X127.789 Y102.296 E5.0119
G1 X127.82 Y102.242 E5.01488
M204 S20000
;LAYER_CHANGE
;Z:0.45
;HEIGHT:0.2
; BEFORE_LAYER_CHANGE 1 @ 0.45mm
G1 Z.45 F18000
; AFTER_LAYER_CHANGE 1 @ 0.45mm
M104 S200 ; set temperature
G1 E.01488 F4800
G92 E0
G1 X127.82 Y102.242 Z.45 F18000
G1 X128.715 Y118.715
G1 E5 F4800
G92 E0
M204 S5000
;TYPE:External perimeter
;WIDTH:0.419999
G1 F7200
G1 X91.285 Y118.715 E1.09144
G1 X91.285 Y101.285 E1.59969
G1 X128.715 Y101.285 E2.69113
G1 X128.715 Y102.243 E2.71906
G1 X128.715 Y118.655 E3.19762
M204 S20000
G1 X128.323 Y118.323 F18000
M204 S10000
;TYPE:Perimeter
;WIDTH:0.449999
G1 F7339
G1 X91.677 Y118.323 E4.35121
G1 X91.677 Y101.677 E4.87522
G1 X128.323 Y101.677 E6.02881
G1 X128.323 Y102.243 E6.04663
G1 X128.323 Y118.263 E6.55093
M204 S20000
;WIPE_START
G1 F14400
G1 X128.323 Y118.323 E6.53193
G1 X112.594 Y118.323 E1.55093
;WIPE_END
G92 E0
G1 X127.135 Y116.946 F18000
G1 E5 F4800
M204 S5000
;TYPE:External perimeter
;WIDTH:0.419999
G1 F7200
G1 X127.08 Y117.08 E5.00422
G1 X126.946 Y117.135 E5.00844
G1 X93.054 Y117.135 E5.99671
G1 X92.92 Y117.08 E6.00093
G1 X92.865 Y116.946 E6.00515
G1 X92.865 Y103.054 E6.41023
G1 X92.92 Y102.92 E6.41445
G1 X93.054 Y102.865 E6.41867
G1 X126.946 Y102.865 E7.40694
G1 X127.08 Y102.92 E7.41116
G1 X127.135 Y103.054 E7.41538
G1 X127.135 Y116.886 E7.81871
M204 S20000
G1 X127.135 Y116.886 F18000
G1 X127.518 Y116.997
M204 S10000
;TYPE:Perimeter
;WIDTH:0.449999
G1 F7339
G1 X127.518 Y117.047 E7.82028
G1 X127.357 Y117.357 E7.83128
G1 X127.047 Y117.518 E7.84228
G1 X126.946 Y117.527 E7.84547
G1 X93.054 Y117.527 E8.91237
G1 X92.643 Y117.357 E8.92637
G1 X92.482 Y117.047 E8.93737
G1 X92.473 Y116.946 E8.94056
G1 X92.473 Y103.054 E9.37787
G1 X92.643 Y102.643 E9.39187
G1 X92.953 Y102.482 E9.40287
G1 X93.054 Y102.473 E9.40606
G1 X126.946 Y102.473 E10.47296
G1 X127.357 Y102.643 E10.48696
G1 X127.527 Y103.054 E10.50096
G1 X127.518 Y116.937 E10.93799
M204 S20000
;WIPE_START
G1 F14400
G1 X127.518 Y116.997 E10.91899
G1 X127.518 Y117.047 E10.90316
G1 X127.357 Y117.357 E10.79254
G1 X127.047 Y117.518 E10.68192
G1 X126.946 Y117.527 E10.64981
G1 X112.066 Y117.527 E5.93799
;WIPE_END
G92 E0
G1 X92.883 Y102.082 F18000
G1 E5 F4800
M204 S10000
;WIDTH:0.446512
G1 F7339
G1 X93.054 Y102.075 E5.00534
;WIDTH:0.431684
G1 X126.946 Y102.075 E6.02424
M204 S20000
;WIPE_START
G1 F14400
G1 X111.156 Y102.075 E1.02424
;WIPE_END
G92 E0
G1 X127.925 Y103.054 F18000
G1 E5 F4800
M204 S10000
G1 F7200
G1 X127.629 Y102.371 E5.02238
G1 X126.946 Y102.075 E5.04476
G1 X127.938 Y102.062 E5.07459
;WIDTH:0.405193
G1 X127.938 Y102.243 E5.07966
;WIDTH:0.431684
G1 X127.926 Y102.994 E5.10224
M204 S20000
G1 X127.926 Y102.994 F18000
G1 X127.925 Y103.054
M204 S10000
G1 F7339
G1 X127.925 Y116.946 E5.51988
;WIDTH:0.446512
G1 X127.918 Y117.117 E5.52522
M204 S20000
;WIPE_START
G1 F14400
G1 X127.925 Y116.946 E5.47102
G1 X127.925 Y103.054 E1.07189
;WIPE_END
G1 E.52522 F4800
G92 E0
G1 X127.117 Y117.918 F18000
G1 E5 F4800
M204 S10000
G1 F7339
G1 X126.946 Y117.925 E5.00534
;WIDTH:0.431684
G1 X93.054 Y117.925 E6.02424
M204 S20000
;WIPE_START
G1 F14400
G1 X108.844 Y117.925 E1.02424
;WIPE_END
G92 E0
G1 X92.082 Y117.117 F18000
G1 E5 F4800
M204 S10000
;WIDTH:0.446512
G1 F7339
G1 X92.075 Y116.946 E5.00534
;WIDTH:0.431684
G1 X92.075 Y103.054 E5.42298
M204 S20000
;WIPE_START
G1 F14400
G1 X92.075 Y116.946 E1.02385
G1 X92.082 Y117.117 E.96965
;WIPE_END
G1 E.42298 F4800
G92 E0
G1 X92.883 Y102.082 F18000
G1 E5 F4800
M204 S10000
;WIDTH:0.446512
G1 F7200
G1 X92.371 Y102.371 E5.01835
;WIDTH:0.431684
G1 X92.075 Y103.054 E5.04073
G1 X92.062 Y102.062 E5.07056
;WIDTH:0.405192
G1 X92.243 Y102.062 E5.07563
;WIDTH:0.446512
G1 X92.823 Y102.08 E5.09374
M204 S20000
;WIPE_START
G1 F14400
G1 X92.883 Y102.082 E5.07473
G1 X92.371 Y102.371 E4.88855
G1 X92.075 Y103.054 E4.65283
G1 X92.062 Y102.062 E4.33867
G1 X92.243 Y102.062 E4.28135
G1 X92.823 Y102.08 E4.09759
;WIPE_END
G1 E.09374 F4800
G92 E0
G1 X93.054 Y117.925 F18000
G1 E5 F4800
M204 S10000
;WIDTH:0.431684
G1 F7200
G1 X92.062 Y117.938 E5.02983
;WIDTH:0.405192
G1 X92.062 Y117.757 E5.0349
;WIDTH:0.446512
G1 X92.082 Y117.117 E5.05488
G1 X92.371 Y117.629 E5.07323
;WIDTH:0.431684
G1 X92.998 Y117.901 E5.09378
M204 S20000
;WIPE_START
G1 F14400
G1 X93.054 Y117.925 E5.07449
G1 X92.062 Y117.938 E4.76033
G1 X92.062 Y117.757 E4.70301
G1 X92.082 Y117.117 E4.50024
G1 X92.371 Y117.629 E4.31406
G1 X92.998 Y117.901 E4.09763
;WIPE_END
G1 E.09378 F4800
G92 E0
G1 X127.847 Y117.241 F18000
G1 E5 F4800
M204 S10000
;WIDTH:0.446512
G1 F7200
G1 X127.918 Y117.117 E5.00446
G1 X127.938 Y117.938 E5.03009
;WIDTH:0.405193
G1 X127.757 Y117.938 E5.03516
;WIDTH:0.446512
G1 X127.117 Y117.918 E5.05514
G1 X127.629 Y117.629 E5.07349
G1 X127.818 Y117.294 E5.08549
M204 S20000
M106 S252.45
;LAYER_CHANGE
;Z:0.65
;HEIGHT:0.2
; BEFORE_LAYER_CHANGE 2 @ 0.65mm
G1 Z.65 F18000
; AFTER_LAYER_CHANGE 2 @ 0.65mm
G1 E.08549 F4800
G92 E0
G1 X127.818 Y117.294 Z.65 F18000
G1 X128.715 Y118.715
G1 E5 F4800
G92 E0
M204 S5000
;TYPE:External perimeter
;WIDTH:0.419999
G1 F7197
G1 X91.285 Y118.715 E1.09144
G1 X91.285 Y101.285 E1.59969
G1 X128.715 Y101.285 E2.69113
G1 X128.715 Y102.243 E2.71906
G1 X128.715 Y118.655 E3.19762
M204 S20000
G1 X128.323 Y118.323 F18000
M204 S10000
;TYPE:Perimeter
;WIDTH:0.449999
G1 F7197
G1 X91.677 Y118.323 E4.35121
G1 X91.677 Y101.677 E4.87522
G1 X128.323 Y101.677 E6.02881
G1 X128.323 Y102.243 E6.04663
G1 X128.323 Y118.263 E6.55093
M204 S20000
;WIPE_START
G1 F14400
G1 X128.323 Y118.323 E6.53193
G1 X112.594 Y118.323 E1.55093
;WIPE_END
G92 E0
G1 X127.135 Y116.946 F18000
G1 E5 F4800
M204 S5000
;TYPE:External perimeter
;WIDTH:0.419999
G1 F7197
G1 X127.08 Y117.08 E5.00422
G1 X126.946 Y117.135 E5.00844
G1 X93.054 Y117.135 E5.99671
G1 X92.92 Y117.08 E6.00093
G1 X92.865 Y116.946 E6.00515
G1 X92.865 Y103.054 E6.41023
G1 X92.92 Y102.92 E6.41445
G1 X93.054 Y102.865 E6.41867
G1 X126.946 Y102.865 E7.40694
G1 X127.08 Y102.92 E7.41116
G1 X127.135 Y103.054 E7.41538
G1 X127.135 Y116.886 E7.81871
M204 S20000
G1 X127.135 Y116.886 F18000
G1 X127.518 Y116.997
M204 S10000
;TYPE:Perimeter
;WIDTH:0.449999
G1 F7197
G1 X127.518 Y117.047 E7.82028
G1 X127.357 Y117.357 E7.83128
G1 X127.047 Y117.518 E7.84228
G1 X126.946 Y117.527 E7.84547
G1 X93.054 Y117.527 E8.91237
G1 X92.643 Y117.357 E8.92637
G1 X92.482 Y117.047 E8.93737
G1 X92.473 Y116.946 E8.94056
G1 X92.473 Y103.054 E9.37787
G1 X92.643 Y102.643 E9.39187
G1 X92.953 Y102.482 E9.40287
G1 X93.054 Y102.473 E9.40606
G1 X126.946 Y102.473 E10.47296
G1 X127.357 Y102.643 E10.48696
G1 X127.527 Y103.054 E10.50096
G1 X127.518 Y116.937 E10.93799
M204 S20000
;WIPE_START
G1 F14400
G1 X127.518 Y116.997 E10.91899
G1 X127.518 Y117.047 E10.90316
G1 X127.357 Y117.357 E10.79254
G1 X127.047 Y117.518 E10.68192
G1 X126.946 Y117.527 E10.64981
G1 X112.066 Y117.527 E5.93799
;WIPE_END
G92 E0
G1 X92.883 Y102.082 F18000
G1 E5 F4800
M204 S10000
;WIDTH:0.446512
G1 F7197
G1 X93.054 Y102.075 E5.00534
;WIDTH:0.431684
G1 X126.946 Y102.075 E6.02424
M204 S20000
;WIPE_START
G1 F14400
G1 X111.156 Y102.075 E1.02424
;WIPE_END
G92 E0
G1 X127.925 Y103.054 F18000
G1 E5 F4800
M204 S10000
G1 F7197
G1 X127.629 Y102.371 E5.02238
G1 X126.946 Y102.075 E5.04476
G1 X127.938 Y102.062 E5.07459
;WIDTH:0.405193
G1 X127.938 Y102.243 E5.07966
;WIDTH:0.431684
G1 X127.926 Y102.994 E5.10224
M204 S20000
G1 X127.926 Y102.994 F18000
G1 X127.925 Y103.054
M204 S10000
G1 F7197
G1 X127.925 Y116.946 E5.51988
;WIDTH:0.446512
G1 X127.918 Y117.117 E5.52522
M204 S20000
;WIPE_START
G1 F14400
G1 X127.925 Y116.946 E5.47102
G1 X127.925 Y103.054 E1.07189
;WIPE_END
G1 E.52522 F4800
G92 E0
G1 X127.117 Y117.918 F18000
G1 E5 F4800
M204 S10000
G1 F7197
G1 X126.946 Y117.925 E5.00534
;WIDTH:0.431684
G1 X93.054 Y117.925 E6.02424
M204 S20000
;WIPE_START
G1 F14400
G1 X108.844 Y117.925 E1.02424
;WIPE_END
G92 E0
G1 X92.082 Y117.117 F18000
G1 E5 F4800
M204 S10000
;WIDTH:0.446512
G1 F7197
G1 X92.075 Y116.946 E5.00534
;WIDTH:0.431684
G1 X92.075 Y103.054 E5.42298
M204 S20000
;WIPE_START
G1 F14400
G1 X92.075 Y116.946 E1.02385
G1 X92.082 Y117.117 E.96965
;WIPE_END
G1 E.42298 F4800
G92 E0
G1 X92.883 Y102.082 F18000
G1 E5 F4800
M204 S10000
;WIDTH:0.446512
G1 F7197
G1 X92.371 Y102.371 E5.01835
;WIDTH:0.431684
G1 X92.075 Y103.054 E5.04073
G1 X92.062 Y102.062 E5.07056
;WIDTH:0.405192
G1 X92.243 Y102.062 E5.07563
;WIDTH:0.446512
G1 X92.823 Y102.08 E5.09374
M204 S20000
;WIPE_START
G1 F14400
G1 X92.883 Y102.082 E5.07473
G1 X92.371 Y102.371 E4.88855
G1 X92.075 Y103.054 E4.65283
G1 X92.062 Y102.062 E4.33867
G1 X92.243 Y102.062 E4.28135
G1 X92.823 Y102.08 E4.09759
;WIPE_END
G1 E.09374 F4800
G92 E0
G1 X93.054 Y117.925 F18000
G1 E5 F4800
M204 S10000
;WIDTH:0.431684
G1 F7197
G1 X92.062 Y117.938 E5.02983
;WIDTH:0.405192
G1 X92.062 Y117.757 E5.0349
;WIDTH:0.446512
G1 X92.082 Y117.117 E5.05488
G1 X92.371 Y117.629 E5.07323
;WIDTH:0.431684
G1 X92.998 Y117.901 E5.09378
M204 S20000
;WIPE_START
G1 F14400
G1 X93.054 Y117.925 E5.07449
G1 X92.062 Y117.938 E4.76033
G1 X92.062 Y117.757 E4.70301
G1 X92.082 Y117.117 E4.50024
G1 X92.371 Y117.629 E4.31406
G1 X92.998 Y117.901 E4.09763
;WIPE_END
G1 E.09378 F4800
G92 E0
G1 X127.847 Y117.241 F18000
G1 E5 F4800
M204 S10000
;WIDTH:0.446512
G1 F7197
G1 X127.918 Y117.117 E5.00446
G1 X127.938 Y117.938 E5.03009
;WIDTH:0.405193
G1 X127.757 Y117.938 E5.03516
;WIDTH:0.446512
G1 X127.117 Y117.918 E5.05514
G1 X127.629 Y117.629 E5.07349
G1 X127.818 Y117.294 E5.08549
M204 S20000
;LAYER_CHANGE
;Z:0.85
;HEIGHT:0.2
; BEFORE_LAYER_CHANGE 3 @ 0.85mm
G1 Z.85 F18000
; AFTER_LAYER_CHANGE 3 @ 0.85mm
G1 E.08549 F4800
G92 E0
G1 X127.818 Y117.294 Z.85 F18000
G1 X128.715 Y118.715
G1 E5 F4800
G92 E0
M204 S5000
;TYPE:External perimeter
;WIDTH:0.419999
G1 F7197
G1 X91.285 Y118.715 E1.09144
G1 X91.285 Y101.285 E1.59969
G1 X128.715 Y101.285 E2.69113
G1 X128.715 Y102.243 E2.71906
G1 X128.715 Y118.655 E3.19762
M204 S20000
G1 X128.323 Y118.323 F18000
M204 S10000
;TYPE:Perimeter
;WIDTH:0.449999
G1 F7197
G1 X91.677 Y118.323 E4.35121
G1 X91.677 Y101.677 E4.87522
G1 X128.323 Y101.677 E6.02881
G1 X128.323 Y102.243 E6.04663
G1 X128.323 Y118.263 E6.55093
M204 S20000
;WIPE_START
G1 F14400
