; generated by PrusaSlicer 2.7.3+linux-x64-GTK3 on 2025-02-17 at 18:41:06 UTC


;
;
; 

; external perimeters extrusion width = 0.42mm
; perimeters extrusion width = 0.45mm
; infill extrusion width = 0.45mm
; solid infill extrusion width = 0.45mm
; top infill extrusion width = 0.42mm
; support material extrusion width = 0.42mm
; first layer extrusion width = 0.50mm

;TYPE:Custom
G90 ; use absolute coordinates
M83 ; extruder relative mode
M140 S60 ; set bed temp
M190 S60 ; wait for bed temp
M104 S210 ; set extruder temp
M109 S210 ; wait for extruder temp
G28                                        ; move X/Y/Z to min endstops
G1 Z0.28                                   ; lift nozzle a bit 
G92 E0 
G1 Y3 F2400                                    ; zero the extruded length 
G1 X180  E40 F500                       ; Extrude 25mm of filament in a 5cm line. 
G92 E0                                     ; zero the extruded length again 
G1 E-0.2 F3000                                ; Retract a little 
G1 X181 F4000                              ; Quickly wipe away from the filament line
M117
G21 ; set units to millimeters
G90 ; use absolute coordinates
M82 ; use absolute distances for extrusion
G92 E0
M107
;LAYER_CHANGE
;Z:0.25
;HEIGHT:0.25
G1 E-5 F4800
G1 Z.25 F18000
G92 E0
G1 X136.276 Y107.153
G1 E5 F4800
G92 E0
M204 S5000
;TYPE:Support material
;WIDTH:0.5
G1 X136.881 Y107.282 E.02669
G1 X137.893 Y107.71 E.0741
G1 X138.817 Y108.361 E.12287
G1 X139.583 Y109.192 E.17163
G1 X140.157 Y110.165 E.22037
G1 X140.511 Y111.238 E.26912
G1 X140.631 Y112.362 E.31789
G1 X140.511 Y113.486 E.36666
G1 X140.157 Y114.559 E.41541
G1 X139.583 Y115.533 E.46419
G1 X138.832 Y116.348 E.51201
G1 X138.341 Y116.705 E.5382
G1 X137.871 Y117.023 E.56268
G1 X136.853 Y117.454 E.61038
G1 X135.742 Y117.665 E.65917
G1 X134.613 Y117.637 E.7079
G1 X133.515 Y117.37 E.75665
G1 X132.96 Y117.102 E.78324
G1 X132.96 Y107.623 E1.19221
G1 X133.515 Y107.354 E1.21882
G1 X134.613 Y107.088 E1.26756
G1 X135.708 Y107.06 E1.31482
G1 X136.21 Y107.143 E1.33677
M204 S20000
G1 X136.21 Y107.143 F18000
G1 X139.757 Y114.843
M204 S5000
G1 F4800
G1 X139.757 Y110.278 E1.53373
G1 X139.261 Y109.435 E1.57593
G1 X139.261 Y115.289 E1.8285
G1 X138.765 Y115.828 E1.8601
G1 X138.765 Y108.896 E2.15918
G1 X138.269 Y108.466 E2.1875
G1 X138.269 Y116.261 E2.52382
G1 X137.773 Y116.605 E2.54986
G1 X137.773 Y108.117 E2.91608
G1 X137.277 Y107.886 E2.93969
G1 X137.277 Y116.839 E3.32597
G1 X136.781 Y117.049 E3.34921
G1 X136.781 Y107.676 E3.75361
G1 X136.285 Y107.566 E3.77553
G1 X136.285 Y117.153 E4.18916
G1 X135.789 Y117.247 E4.21094
G1 X135.789 Y107.481 E4.6323
G1 X135.293 Y107.472 E4.6537
G1 X135.293 Y117.252 E5.07566
G1 X134.797 Y117.239 E5.09707
G1 X134.797 Y107.485 E5.51791
G1 X134.301 Y107.577 E5.53968
G1 X134.301 Y117.148 E5.95262
G1 X133.805 Y117.027 E5.97465
G1 X133.805 Y107.49 E6.38613
M204 S20000
;WIPE_START
G1 F14400
G1 X133.805 Y117.027 E3.36608
G1 X134.301 Y117.148 E3.20441
G1 X134.301 Y111.406 E1.38613
;WIPE_END
G92 E0
G1 X107.658 Y87.088 F18000
G1 E5 F4800
M204 S5000
G1 X108.293 Y87.116 E5.02742
G1 X109.4 Y87.369 E5.07641
G1 X110.444 Y87.815 E5.12539
G1 X111.391 Y88.44 E5.17434
G1 X112.211 Y89.224 E5.22329
G1 X112.878 Y90.143 E5.27228
G1 X113.371 Y91.165 E5.32124
G1 X113.673 Y92.26 E5.37025
G1 X113.775 Y93.39 E5.4192
G1 X113.673 Y94.52 E5.46815
G1 X113.371 Y95.615 E5.51716
G1 X112.878 Y96.637 E5.56612
G1 X112.586 Y97.04 E5.58759
G1 X102.279 Y97.04 E6.03229
G1 X101.739 Y96.137 E6.07768
G1 X101.34 Y95.074 E6.12667
G1 X101.138 Y93.958 E6.1756
G1 X101.138 Y92.822 E6.22461
G1 X101.34 Y91.706 E6.27354
G1 X101.739 Y90.643 E6.32253
G1 X102.321 Y89.669 E6.37148
G1 X103.068 Y88.814 E6.42047
G1 X103.955 Y88.106 E6.46944
G1 X104.955 Y87.568 E6.51843
G1 X106.035 Y87.217 E6.56743
G1 X107.159 Y87.065 E6.61637
G1 X107.591 Y87.085 E6.63503
M204 S20000
G1 X107.591 Y87.085 F18000
G1 X112.976 Y95.972
M204 S5000
G1 F4800
G1 X112.976 Y91.271 E6.83786
G1 X112.48 Y90.277 E6.88579
G1 X112.48 Y96.503 E7.15441
G1 X112.381 Y96.638 E7.16163
G1 X111.984 Y96.638 E7.17876
G1 X111.984 Y89.595 E7.48263
G1 X111.488 Y89.089 E7.5132
G1 X111.488 Y96.638 E7.8389
G1 X110.992 Y96.638 E7.8603
G1 X110.992 Y88.658 E8.2046
G1 X110.496 Y88.331 E8.23023
G1 X110.496 Y96.638 E8.58864
G1 X110 Y96.638 E8.61004
G1 X110 Y88.062 E8.98005
G1 X109.504 Y87.85 E9.00332
G1 X109.504 Y96.638 E9.38248
G1 X109.008 Y96.638 E9.40388
G1 X109.008 Y87.691 E9.7899
G1 X108.512 Y87.578 E9.81185
G1 X108.512 Y96.638 E10.20275
G1 X108.016 Y96.638 E10.22415
G1 X108.016 Y87.506 E10.61815
G1 X107.52 Y87.483 E10.63957
G1 X107.52 Y96.638 E11.03456
G1 X107.024 Y96.638 E11.05596
G1 X107.024 Y87.489 E11.4507
G1 X106.528 Y87.556 E11.47229
G1 X106.528 Y96.638 E11.86413
G1 X106.032 Y96.638 E11.88553
G1 X106.032 Y87.641 E12.27371
G1 X105.537 Y87.802 E12.29617
G1 X105.537 Y96.638 E12.6774
G1 X105.041 Y96.638 E12.6988
G1 X105.041 Y87.978 E13.07244
G1 X104.545 Y88.245 E13.09674
G1 X104.545 Y96.638 E13.45886
G1 X104.049 Y96.638 E13.48026
G1 X104.049 Y88.546 E13.82939
G1 X103.553 Y88.941 E13.85675
G1 X103.553 Y96.638 E14.18884
G1 X103.057 Y96.638 E14.21024
G1 X103.057 Y89.437 E14.52093
G1 X102.561 Y90.051 E14.55498
G1 X102.561 Y96.638 E14.83918
G1 X102.065 Y95.862 E14.87892
G1 X102.065 Y90.918 E15.09223
G1 X101.729 Y91.813 E15.13348
G1 X101.569 Y92.695 E15.17216
G1 X101.569 Y95.112 E15.27644
M204 S20000
;WIPE_START
G1 F14400
G1 X101.569 Y92.695 E14.51106
G1 X101.729 Y91.813 E14.2272
G1 X102.065 Y90.918 E13.92447
G1 X102.065 Y95.862 E12.35887
G1 X102.561 Y96.638 E12.06723
G1 X102.561 Y90.983 E10.27644
;WIPE_END
G92 E0
G1 X97.527 Y102.75 F18000
G1 E5 F4800
M204 S5000
;TYPE:External perimeter
;WIDTH:0.499999
G1 X97.685 Y102.684 E5.00739
G1 X97.75 Y102.527 E5.01472
G1 X97.75 Y97.75 E5.22082
G1 X117.25 Y97.75 E6.06215
G1 X117.25 Y102.527 E6.26825
G1 X117.315 Y102.684 E6.27558
G1 X117.473 Y102.75 E6.28297
G1 X132.25 Y102.75 E6.92053
G1 X132.25 Y112.5 E7.34119
G1 X132.25 Y122.25 E7.76185
G1 X87.75 Y122.25 E9.68181
G1 X87.75 Y102.75 E10.52314
G1 X97.467 Y102.75 E10.94238
M204 S20000
G1 X97.467 Y102.75 F18000
G1 X97.579 Y103.191
M204 S5000
;TYPE:Perimeter
G1 F4800
G1 X97.638 Y103.187 E10.94493
G1 X97.929 Y103.062 E10.95859
G1 X98.118 Y102.841 E10.97114
G1 X98.196 Y102.527 E10.9851
G1 X98.196 Y98.196 E11.17196
G1 X116.804 Y98.196 E11.9748
G1 X116.804 Y102.527 E12.16166
G1 X116.83 Y102.713 E12.16976
G1 X116.966 Y102.964 E12.18208
G1 X117.206 Y103.141 E12.19495
G1 X117.473 Y103.196 E12.20671
G1 X131.804 Y103.196 E12.82502
G1 X131.804 Y112.5 E13.22644
G1 X131.804 Y121.804 E13.62786
G1 X88.196 Y121.804 E15.50933
G1 X88.196 Y103.196 E16.31217
G1 X97.5 Y103.196 E16.71359
G1 X97.519 Y103.195 E16.71441
M204 S20000
G1 X97.519 Y103.195 F18000
G1 X97.655 Y103.625
M204 S5000
G1 F4800
G1 X97.802 Y103.608 E16.72079
G1 X98.127 Y103.468 E16.73606
G1 X98.42 Y103.196 E16.75331
G1 X98.598 Y102.838 E16.77056
G1 X98.643 Y102.527 E16.78412
G1 X98.643 Y98.643 E16.9517
G1 X116.357 Y98.643 E17.71597
G1 X116.357 Y102.527 E17.88355
G1 X116.402 Y102.838 E17.89711
G1 X116.534 Y103.129 E17.9109
G1 X116.804 Y103.42 E17.92803
G1 X117.111 Y103.582 E17.94301
G1 X117.473 Y103.643 E17.95885
G1 X131.357 Y103.643 E18.55788
G1 X131.357 Y112.5 E18.94002
G1 X131.357 Y121.357 E19.32216
G1 X88.643 Y121.357 E21.16506
G1 X88.643 Y103.643 E21.92933
G1 X97.5 Y103.643 E22.31147
G1 X97.596 Y103.632 E22.31564
M204 S20000
;WIPE_START
G1 F14400
G1 X97.655 Y103.625 E22.29683
G1 X97.802 Y103.608 E22.24997
G1 X98.127 Y103.468 E22.13791
G1 X98.42 Y103.196 E22.01131
G1 X98.598 Y102.838 E21.8847
G1 X98.643 Y102.527 E21.78519
G1 X98.643 Y98.643 E20.55526
G1 X108.874 Y98.643 E17.31564
;WIPE_END
G92 E0
G1 X131.179 Y104.731 F18000
G1 E5 F4800
M204 S5000
;TYPE:Solid infill
;WIDTH:0.503522
G1 X130.47 Y104.022 E5.0436
G1 X129.833 Y104.022 E5.0713
G1 X130.978 Y105.166 E5.14168
G1 X130.978 Y105.803 E5.16938
G1 X129.197 Y104.021 E5.27894
G1 X128.56 Y104.021 E5.30664
G1 X130.978 Y106.439 E5.45534
G1 X130.978 Y107.075 E5.483
G1 X127.924 Y104.021 E5.67081
G1 X127.287 Y104.021 E5.69851
G1 X130.978 Y107.711 E5.92547
G1 X130.978 Y108.347 E5.95313
G1 X126.651 Y104.021 E6.2192
G1 X126.015 Y104.02 E6.24686
G1 X130.978 Y108.984 E6.55211
G1 X130.978 Y109.62 E6.57977
G1 X125.378 Y104.02 E6.92416
G1 X124.742 Y104.02 E6.95182
G1 X130.978 Y110.256 E7.33532
G1 X130.978 Y110.892 E7.36298
G1 X124.105 Y104.02 E7.78562
G1 X123.469 Y104.02 E7.81328
G1 X130.978 Y111.529 E8.27507
G1 X130.978 Y112.165 E8.30273
G1 X122.832 Y104.019 E8.80369
G1 X122.196 Y104.019 E8.83135
G1 X130.978 Y112.801 E9.37143
G1 X130.978 Y113.437 E9.39909
G1 X121.56 Y104.019 E9.97828
G1 X120.923 Y104.019 E10.00598
G1 X130.978 Y114.073 E10.62431
G1 X130.978 Y114.71 E10.65201
G1 X120.287 Y104.018 E11.30952
G1 X119.65 Y104.018 E11.33722
G1 X130.978 Y115.346 E12.03387
G1 X130.978 Y115.982 E12.06153
G1 X119.014 Y104.018 E12.79729
G1 X118.377 Y104.018 E12.82499
G1 X130.978 Y116.618 E13.5999
G1 X130.978 Y117.254 E13.62756
G1 X117.54 Y103.817 E14.45394
M204 S20000
;WIPE_START
G1 F14400
G1 X128.705 Y114.982 E9.45394
;WIPE_END
G92 E0
G1 X116.179 Y99.274 F18000
G1 E5 F4800
M204 S5000
G1 X115.927 Y99.022 E5.0155
G1 X115.29 Y99.022 E5.0432
G1 X115.978 Y99.71 E5.08551
G1 X115.978 Y100.346 E5.11317
G1 X114.654 Y99.022 E5.19459
G1 X114.018 Y99.022 E5.22225
G1 X115.978 Y100.982 E5.34279
G1 X115.978 Y101.618 E5.37045
G1 X113.382 Y99.022 E5.5301
G1 X112.746 Y99.022 E5.55776
G1 X116.179 Y102.455 E5.76888
M204 S20000
;WIPE_START
G1 F14400
G1 X112.746 Y99.022 E4.23146
G1 X113.382 Y99.022 E4.03006
G1 X115.978 Y101.618 E2.86748
G1 X115.978 Y100.982 E2.66608
G1 X114.018 Y99.022 E1.78832
G1 X114.654 Y99.022 E1.58692
G1 X115.978 Y100.346 E.99399
G1 X115.978 Y99.71 E.79259
G1 X115.925 Y99.657 E.76888
;WIPE_END
G92 E0
G1 X111.908 Y98.821 F18000
G1 E5 F4800
M204 S5000
G1 X130.978 Y117.891 E6.17277
G1 X130.978 Y118.527 E6.20043
G1 X111.473 Y99.022 E7.39995
G1 X110.837 Y99.022 E7.42761
G1 X130.978 Y119.163 E8.66624
G1 X130.978 Y119.799 E8.6939
G1 X110.201 Y99.022 E9.97164
G1 X109.564 Y99.022 E9.99934
G1 X130.978 Y120.436 E11.31626
G1 X130.978 Y120.978 E11.33983
G1 X130.884 Y120.978 E11.34392
G1 X108.928 Y99.022 E12.69417
G1 X108.292 Y99.022 E12.72183
G1 X130.248 Y120.978 E14.07208
G1 X129.612 Y120.978 E14.09974
G1 X107.656 Y99.022 E15.44999
G1 X107.02 Y99.022 E15.47765
G1 X128.975 Y120.978 E16.82787
G1 X128.339 Y120.978 E16.85553
G1 X106.383 Y99.022 E18.20578
G1 X105.747 Y99.022 E18.23344
G1 X127.703 Y120.978 E19.58369
G1 X127.067 Y120.978 E19.61135
G1 X105.111 Y99.022 E20.9616
G1 X104.475 Y99.022 E20.98926
G1 X126.431 Y120.978 E22.33951
G1 X125.794 Y120.978 E22.36721
G1 X103.839 Y99.022 E23.71743
G1 X103.202 Y99.022 E23.74513
G1 X125.158 Y120.978 E25.09538
G1 X124.522 Y120.978 E25.12304
G1 X102.566 Y99.022 E26.47329
G1 X101.93 Y99.022 E26.50095
G1 X123.886 Y120.978 E27.8512
G1 X123.249 Y120.978 E27.8789
G1 X101.294 Y99.022 E29.22912
G1 X100.657 Y99.022 E29.25682
G1 X122.613 Y120.978 E30.60707
G1 X121.977 Y120.978 E30.63473
G1 X100.021 Y99.022 E31.98498
G1 X99.385 Y99.022 E32.01264
G1 X121.341 Y120.978 E33.36289
G1 X120.705 Y120.978 E33.39055
G1 X99.022 Y99.295 E34.72401
G1 X99.022 Y99.932 E34.75171
G1 X120.068 Y120.978 E36.046
G1 X119.432 Y120.978 E36.07366
G1 X99.022 Y100.568 E37.32883
G1 X99.022 Y101.204 E37.35649
G1 X118.796 Y120.978 E38.57255
G1 X118.16 Y120.978 E38.60021
G1 X99.022 Y101.84 E39.77716
G1 X99.022 Y102.476 E39.80482
G1 X117.524 Y120.978 E40.94266
G1 X116.887 Y120.978 E40.97036
G1 X98.931 Y103.022 E42.07462
G1 X98.909 Y103.1 E42.07814
G1 X98.711 Y103.438 E42.09517
G1 X116.251 Y120.978 E43.17384
G1 X115.615 Y120.978 E43.2015
G1 X98.381 Y103.744 E44.26136
G1 X98.231 Y103.847 E44.26927
G1 X97.955 Y103.954 E44.28214
G1 X114.979 Y120.978 E45.32908
G1 X114.342 Y120.978 E45.35678
G1 X97.387 Y104.022 E46.39951
G1 X96.75 Y104.022 E46.42721
G1 X113.706 Y120.978 E47.46997
G1 X113.07 Y120.978 E47.49763
G1 X96.114 Y104.022 E48.54039
G1 X95.478 Y104.022 E48.56805
G1 X112.434 Y120.978 E49.61081
G1 X111.798 Y120.978 E49.63847
G1 X94.842 Y104.022 E50.68123
G1 X94.206 Y104.022 E50.70889
G1 X111.161 Y120.978 E51.75162
G1 X110.525 Y120.978 E51.77928
G1 X93.569 Y104.022 E52.82204
G1 X92.933 Y104.022 E52.8497
G1 X109.889 Y120.978 E53.89246
G1 X109.253 Y120.978 E53.92012
G1 X92.297 Y104.022 E54.96288
G1 X91.661 Y104.022 E54.99054
G1 X108.617 Y120.978 E56.0333
G1 X107.98 Y120.978 E56.061
G1 X91.025 Y104.022 E57.10373
G1 X90.388 Y104.022 E57.13143
G1 X107.344 Y120.978 E58.17419
G1 X106.708 Y120.978 E58.20185
G1 X89.752 Y104.022 E59.24461
G1 X89.116 Y104.022 E59.27227
G1 X106.072 Y120.978 E60.31503
G1 X105.435 Y120.978 E60.34273
G1 X89.022 Y104.565 E61.3521
G1 X89.022 Y105.201 E61.37976
G1 X104.799 Y120.978 E62.35001
G1 X104.163 Y120.978 E62.37767
G1 X89.022 Y105.837 E63.30881
G1 X89.022 Y106.473 E63.33647
G1 X103.527 Y120.978 E64.2285
G1 X102.891 Y120.978 E64.25616
G1 X89.022 Y107.109 E65.10908
G1 X89.022 Y107.746 E65.13678
G1 X102.254 Y120.978 E65.95052
G1 X101.618 Y120.978 E65.97818
G1 X89.022 Y108.382 E66.75281
G1 X89.022 Y109.018 E66.78047
G1 X100.982 Y120.978 E67.51599
G1 X100.346 Y120.978 E67.54365
G1 X89.022 Y109.654 E68.24005
G1 X89.022 Y110.29 E68.26771
G1 X99.71 Y120.978 E68.925
G1 X99.073 Y120.978 E68.9527
G1 X89.022 Y110.927 E69.57082
G1 X89.022 Y111.563 E69.59848
G1 X98.437 Y120.978 E70.17748
G1 X97.801 Y120.978 E70.20514
G1 X89.022 Y112.199 E70.74503
G1 X89.022 Y112.835 E70.77269
G1 X97.165 Y120.978 E71.27347
G1 X96.528 Y120.978 E71.30117
G1 X89.022 Y113.472 E71.76277
G1 X89.022 Y114.108 E71.79043
G1 X95.892 Y120.978 E72.21292
G1 X95.256 Y120.978 E72.24058
G1 X89.022 Y114.744 E72.62396
G1 X89.022 Y115.38 E72.65162
G1 X94.62 Y120.978 E72.99589
G1 X93.984 Y120.978 E73.02355
G1 X89.022 Y116.016 E73.3287
G1 X89.022 Y116.653 E73.3564
G1 X93.347 Y120.978 E73.62238
G1 X92.711 Y120.978 E73.65004
G1 X89.022 Y117.289 E73.87691
G1 X89.022 Y117.925 E73.90457
G1 X92.075 Y120.978 E74.09232
G1 X91.439 Y120.978 E74.11998
G1 X89.022 Y118.561 E74.26862
G1 X89.022 Y119.197 E74.29628
G1 X90.803 Y120.978 E74.40581
G1 X90.166 Y120.978 E74.43351
G1 X89.022 Y119.834 E74.50386
G1 X89.022 Y120.47 E74.53152
G1 X89.731 Y121.179 E74.57512
M204 S20000
;LAYER_CHANGE
;Z:0.45
;HEIGHT:0.2
; BEFORE_LAYER_CHANGE 1 @ 0.45mm
G1 Z.45 F18000
; AFTER_LAYER_CHANGE 1 @ 0.45mm
M104 S200 ; set temperature
G1 E69.57512 F4800
G92 E0
G1 X89.731 Y121.179 Z.45 F18000
G1 X105.686 Y91.638
G1 E5 F4800
G92 E0
;TYPE:Support material
;WIDTH:0.42
G1 F7200
G1 X106.466 Y91.104 E.02756
G1 X107.351 Y90.907 E.054
G1 X107.369 Y90.488 E.06623
G1 X108.342 Y90.625 E.09488
G1 X108.821 Y90.83 E.11007
G1 X109.633 Y91.477 E.14034
G1 X110.166 Y92.368 E.17061
G1 X110.304 Y92.871 E.18582
G1 X110.304 Y93.909 E.21609
G1 X109.939 Y94.881 E.24637
G1 X109.256 Y95.663 E.27665
G1 X108.342 Y96.155 E.30692
G1 X107.834 Y96.271 E.32211
G1 X106.796 Y96.225 E.35241
G1 X106.301 Y96.064 E.36759
G1 X105.434 Y95.492 E.39788
G1 X105.091 Y95.099 E.41309
G1 X104.64 Y94.164 E.44336
G1 X104.547 Y93.651 E.45856
G1 X104.64 Y92.616 E.48886
G1 X105.091 Y91.681 E.51913
G1 X105.842 Y90.963 E.54943
G1 X106.301 Y90.716 E.56463
G1 X107.313 Y90.485 E.5949
G1 X107.313 Y90.485 F18000
G1 X107.353 Y90.067
G1 F7200
G1 X107.89 Y90.091 E.61057
G1 X108.472 Y90.224 E.62798
G1 X109.021 Y90.458 E.64538
G1 X109.519 Y90.787 E.66278
G1 X109.951 Y91.199 E.68019
G1 X110.301 Y91.682 E.69758
G1 X110.56 Y92.22 E.71499
G1 X110.719 Y92.796 E.73241
G1 X110.773 Y93.39 E.7498
G1 X110.719 Y93.984 E.76719
G1 X110.56 Y94.56 E.78461
G1 X110.301 Y95.098 E.80202
G1 X109.951 Y95.581 E.81941
G1 X109.519 Y95.993 E.83682
G1 X109.021 Y96.322 E.85422
G1 X108.526 Y96.533 E.86991
G1 X107.89 Y96.689 E.88901
G1 X107.294 Y96.716 E.90641
G1 X106.702 Y96.636 E.92383
G1 X106.135 Y96.451 E.94122
G1 X105.609 Y96.169 E.95862
G1 X105.143 Y95.796 E.97603
G1 X104.788 Y95.391 E.99173
G1 X104.444 Y94.835 E1.01079
G1 X104.234 Y94.276 E1.0282
G1 X104.127 Y93.688 E1.04563
G1 X104.127 Y93.092 E1.06301
G1 X104.234 Y92.504 E1.08044
G1 X104.444 Y91.945 E1.09785
G1 X104.75 Y91.433 E1.11524
G1 X105.143 Y90.984 E1.13264
G1 X105.609 Y90.611 E1.15005
